<?xml version="1.0" encoding="UTF-8"?>
<map version="1.0" orientation="orthogonal" width="56" height="26" tilewidth="70" tileheight="70" backgroundcolor="#3c4556">
 <tileset firstgid="1" name="map_tiles_70" tilewidth="70" tileheight="70">
  <image source="map_tiles_70.png" width="560" height="140"/>
  <tile id="0"/>
  <tile id="1"/>
  <tile id="2"/>
  <tile id="3"/>
 </tileset>
 <objectgroup color="#ffff00" name="items" width="56" height="26">
  <object name="gun" type="items" x="805" y="595" width="70" height="70"
>
   <properties>
    <property name="bullets" value="5"/>
   </properties>
  </object>
  <object name="gun" type="items" x="1225" y="595" width="70" height="70"
>
   <properties>
    <property name="bullets" value="5"/>
   </properties>
  </object>
  <object name="health" type="items" x="2485" y="595" width="70" height="70"
/>
  <object name="key" type="items" x="2625" y="595" width="70" height="70"
/>
  <object name="health" type="items" x="2065" y="1015" width="70" height="70"
/>
  <object name="gun" type="items" x="1925" y="1015" width="70" height="70"
>
   <properties>
    <property name="bullets" value="4"/>
   </properties>
  </object>
  <object name="health" type="items" x="1365" y="1295" width="70" height="70"
/>
  <object name="gun" type="items" x="1925" y="1295" width="70" height="70"
>
   <properties>
    <property name="bullets" value="4"/>
   </properties>
  </object>
  <object name="gun" type="items" x="3605" y="595" width="70" height="70"
>
   <properties>
    <property name="bullets" value="3"/>
   </properties>
  </object>
  <object name="exit_sign" type="items" x="2975" y="1015" width="70" height="70"
/>
  <object name="door" type="items" x="3045" y="1015" width="70" height="70"
/>
 </objectgroup>
 <objectgroup color="#00aa00" name="player" width="56" height="26">
  <object name="player" type="player" x="210" y="560" width="70" height="140"
/>
 </objectgroup>
 <objectgroup color="#ff0000" name="enemies" width="56" height="26">
  <object name="zombie" type="enemy" x="805" y="560" width="70" height="140"
>
   <properties>
    <property name="archetype" value="walker"/>
   </properties>
  </object>
  <object name="zombie" type="enemy" x="1365" y="560" width="70" height="140"
>
   <properties>
    <property name="archetype" value="walker"/>
   </properties>
  </object>
  <object name="zombie" type="enemy" x="1645" y="560" width="70" height="140"
>
   <properties>
    <property name="archetype" value="runner"/>
    <property name="startLeft" value="true"/>
   </properties>
  </object>
  <object name="zombie" type="enemy" x="2275" y="560" width="70" height="140"
>
   <properties>
    <property name="archetype" value="walker"/>
   </properties>
  </object>
  <object name="zombie" type="enemy" x="2625" y="560" width="70" height="140"
>
   <properties>
    <property name="archetype" value="walker"/>
    <property name="startLeft" value="true"/>
   </properties>
  </object>
  <object name="zombie" type="enemy" x="1015" y="980" width="70" height="140"
>
   <properties>
    <property name="archetype" value="walker"/>
   </properties>
  </object>
  <object name="zombie" type="enemy" x="1225" y="980" width="70" height="140"
>
   <properties>
    <property name="archetype" value="walker"/>
    <property name="startLeft" value="true"/>
   </properties>
  </object>
  <object name="zombie" type="enemy" x="1435" y="980" width="70" height="140"
>
   <properties>
    <property name="archetype" value="runner"/>
   </properties>
  </object>
  <object name="zombie" type="enemy" x="1995" y="980" width="70" height="140"
>
   <properties>
    <property name="archetype" value="runner"/>
    <property name="startLeft" value="true"/>
   </properties>
  </object>
  <object name="zombie" type="enemy" x="2275" y="980" width="70" height="140"
>
   <properties>
    <property name="archetype" value="walker"/>
   </properties>
  </object>
  <object name="zombie" type="enemy" x="2555" y="980" width="70" height="140"
>
   <properties>
    <property name="archetype" value="walker"/>
    <property name="startLeft" value="true"/>
   </properties>
  </object>
  <object name="zombie" type="enemy" x="2905" y="980" width="70" height="140"
>
   <properties>
    <property name="archetype" value="brute"/>
   </properties>
  </object>
  <object name="zombie" type="enemy" x="1365" y="1260" width="70" height="140"
>
   <properties>
    <property name="archetype" value="walker"/>
   </properties>
  </object>
  <object name="zombie" type="enemy" x="1925" y="1260" width="70" height="140"
>
   <properties>
    <property name="archetype" value="walker"/>
    <property name="startLeft" value="true"/>
   </properties>
  </object>
  <object name="zombie" type="enemy" x="3535" y="560" width="70" height="140"
>
   <properties>
    <property name="archetype" value="spitter"/>
   </properties>
  </object>
 </objectgroup>
 <layer name="collision" width="56" height="26">
  <data>
   <tile gid="0"/>
   <tile gid="0"/>
   <tile gid="0"/>
   <tile gid="0"/>
   <tile gid="0"/>
   <tile gid="0"/>
   <tile gid="0"/>
   <tile gid="0"/>
   <tile gid="0"/>
   <tile gid="0"/>
   <tile gid="0"/>
   <tile gid="0"/>
   <tile gid="0"/>
   <tile gid="0"/>
   <tile gid="0"/>
   <tile gid="0"/>
   <tile gid="0"/>
   <tile gid="0"/>
   <tile gid="0"/>
   <tile gid="0"/>
   <tile gid="0"/>
   <tile gid="0"/>
   <tile gid="0"/>
   <tile gid="0"/>
   <tile gid="0"/>
   <tile gid="0"/>
   <tile gid="0"/>
   <tile gid="0"/>
   <tile gid="0"/>
   <tile gid="0"/>
   <tile gid="0"/>
   <tile gid="0"/>
   <tile gid="0"/>
   <tile gid="0"/>
   <tile gid="0"/>
   <tile gid="0"/>
   <tile gid="0"/>
   <tile gid="0"/>
   <tile gid="0"/>
   <tile gid="0"/>
   <tile gid="0"/>
   <tile gid="0"/>
   <tile gid="0"/>
   <tile gid="0"/>
   <tile gid="0"/>
   <tile gid="0"/>
   <tile gid="0"/>
   <tile gid="0"/>
   <tile gid="0"/>
   <tile gid="0"/>
   <tile gid="0"/>
   <tile gid="0"/>
   <tile gid="0"/>
   <tile gid="0"/>
   <tile gid="0"/>
   <tile gid="0"/>
   <tile gid="0"/>
   <tile gid="0"/>
   <tile gid="0"/>
   <tile gid="0"/>
   <tile gid="0"/>
   <tile gid="0"/>
   <tile gid="0"/>
   <tile gid="0"/>
   <tile gid="0"/>
   <tile gid="0"/>
   <tile gid="0"/>
   <tile gid="0"/>
   <tile gid="0"/>
   <tile gid="0"/>
   <tile gid="0"/>
   <tile gid="0"/>
   <tile gid="0"/>
   <tile gid="0"/>
   <tile gid="0"/>
   <tile gid="0"/>
   <tile gid="0"/>
   <tile gid="0"/>
   <tile gid="0"/>
   <tile gid="0"/>
   <tile gid="0"/>
   <tile gid="0"/>
   <tile gid="0"/>
   <tile gid="0"/>
   <tile gid="0"/>
   <tile gid="0"/>
   <tile gid="0"/>
   <tile gid="0"/>
   <tile gid="0"/>
   <tile gid="0"/>
   <tile gid="0"/>
   <tile gid="0"/>
   <tile gid="0"/>
   <tile gid="0"/>
   <tile gid="0"/>
   <tile gid="0"/>
   <tile gid="0"/>
   <tile gid="0"/>
   <tile gid="0"/>
   <tile gid="0"/>
   <tile gid="0"/>
   <tile gid="0"/>
   <tile gid="0"/>
   <tile gid="0"/>
   <tile gid="0"/>
   <tile gid="0"/>
   <tile gid="0"/>
   <tile gid="0"/>
   <tile gid="0"/>
   <tile gid="0"/>
   <tile gid="0"/>
   <tile gid="0"/>
   <tile gid="0"/>
   <tile gid="0"/>
   <tile gid="0"/>
   <tile gid="0"/>
   <tile gid="0"/>
   <tile gid="0"/>
   <tile gid="0"/>
   <tile gid="0"/>
   <tile gid="0"/>
   <tile gid="0"/>
   <tile gid="0"/>
   <tile gid="0"/>
   <tile gid="0"/>
   <tile gid="0"/>
   <tile gid="0"/>
   <tile gid="0"/>
   <tile gid="0"/>
   <tile gid="0"/>
   <tile gid="0"/>
   <tile gid="0"/>
   <tile gid="0"/>
   <tile gid="0"/>
   <tile gid="0"/>
   <tile gid="0"/>
   <tile gid="0"/>
   <tile gid="0"/>
   <tile gid="0"/>
   <tile gid="0"/>
   <tile gid="0"/>
   <tile gid="0"/>
   <tile gid="0"/>
   <tile gid="0"/>
   <tile gid="0"/>
   <tile gid="0"/>
   <tile gid="0"/>
   <tile gid="0"/>
   <tile gid="0"/>
   <tile gid="0"/>
   <tile gid="0"/>
   <tile gid="0"/>
   <tile gid="0"/>
   <tile gid="0"/>
   <tile gid="0"/>
   <tile gid="0"/>
   <tile gid="0"/>
   <tile gid="0"/>
   <tile gid="0"/>
   <tile gid="0"/>
   <tile gid="0"/>
   <tile gid="0"/>
   <tile gid="0"/>
   <tile gid="0"/>
   <tile gid="0"/>
   <tile gid="0"/>
   <tile gid="0"/>
   <tile gid="0"/>
   <tile gid="0"/>
   <tile gid="0"/>
   <tile gid="0"/>
   <tile gid="0"/>
   <tile gid="0"/>
   <tile gid="0"/>
   <tile gid="0"/>
   <tile gid="0"/>
   <tile gid="0"/>
   <tile gid="0"/>
   <tile gid="0"/>
   <tile gid="0"/>
   <tile gid="0"/>
   <tile gid="0"/>
   <tile gid="0"/>
   <tile gid="0"/>
   <tile gid="0"/>
   <tile gid="0"/>
   <tile gid="0"/>
   <tile gid="0"/>
   <tile gid="0"/>
   <tile gid="0"/>
   <tile gid="0"/>
   <tile gid="0"/>
   <tile gid="0"/>
   <tile gid="0"/>
   <tile gid="0"/>
   <tile gid="0"/>
   <tile gid="0"/>
   <tile gid="0"/>
   <tile gid="0"/>
   <tile gid="0"/>
   <tile gid="0"/>
   <tile gid="0"/>
   <tile gid="0"/>
   <tile gid="0"/>
   <tile gid="0"/>
   <tile gid="0"/>
   <tile gid="0"/>
   <tile gid="0"/>
   <tile gid="0"/>
   <tile gid="0"/>
   <tile gid="0"/>
   <tile gid="0"/>
   <tile gid="0"/>
   <tile gid="0"/>
   <tile gid="0"/>
   <tile gid="0"/>
   <tile gid="0"/>
   <tile gid="0"/>
   <tile gid="0"/>
   <tile gid="0"/>
   <tile gid="0"/>
   <tile gid="0"/>
   <tile gid="0"/>
   <tile gid="0"/>
   <tile gid="0"/>
   <tile gid="0"/>
   <tile gid="0"/>
   <tile gid="0"/>
   <tile gid="0"/>
   <tile gid="0"/>
   <tile gid="0"/>
   <tile gid="0"/>
   <tile gid="0"/>
   <tile gid="0"/>
   <tile gid="0"/>
   <tile gid="0"/>
   <tile gid="0"/>
   <tile gid="0"/>
   <tile gid="0"/>
   <tile gid="0"/>
   <tile gid="0"/>
   <tile gid="0"/>
   <tile gid="0"/>
   <tile gid="0"/>
   <tile gid="0"/>
   <tile gid="0"/>
   <tile gid="0"/>
   <tile gid="0"/>
   <tile gid="0"/>
   <tile gid="0"/>
   <tile gid="0"/>
   <tile gid="0"/>
   <tile gid="0"/>
   <tile gid="0"/>
   <tile gid="0"/>
   <tile gid="0"/>
   <tile gid="0"/>
   <tile gid="0"/>
   <tile gid="0"/>
   <tile gid="0"/>
   <tile gid="0"/>
   <tile gid="0"/>
   <tile gid="0"/>
   <tile gid="0"/>
   <tile gid="0"/>
   <tile gid="0"/>
   <tile gid="0"/>
   <tile gid="0"/>
   <tile gid="0"/>
   <tile gid="0"/>
   <tile gid="0"/>
   <tile gid="0"/>
   <tile gid="0"/>
   <tile gid="0"/>
   <tile gid="0"/>
   <tile gid="0"/>
   <tile gid="0"/>
   <tile gid="0"/>
   <tile gid="0"/>
   <tile gid="0"/>
   <tile gid="0"/>
   <tile gid="0"/>
   <tile gid="0"/>
   <tile gid="0"/>
   <tile gid="0"/>
   <tile gid="0"/>
   <tile gid="0"/>
   <tile gid="0"/>
   <tile gid="0"/>
   <tile gid="0"/>
   <tile gid="0"/>
   <tile gid="0"/>
   <tile gid="0"/>
   <tile gid="0"/>
   <tile gid="0"/>
   <tile gid="0"/>
   <tile gid="0"/>
   <tile gid="0"/>
   <tile gid="0"/>
   <tile gid="0"/>
   <tile gid="0"/>
   <tile gid="0"/>
   <tile gid="0"/>
   <tile gid="0"/>
   <tile gid="0"/>
   <tile gid="0"/>
   <tile gid="0"/>
   <tile gid="0"/>
   <tile gid="0"/>
   <tile gid="0"/>
   <tile gid="0"/>
   <tile gid="0"/>
   <tile gid="0"/>
   <tile gid="0"/>
   <tile gid="0"/>
   <tile gid="0"/>
   <tile gid="0"/>
   <tile gid="0"/>
   <tile gid="0"/>
   <tile gid="0"/>
   <tile gid="0"/>
   <tile gid="0"/>
   <tile gid="0"/>
   <tile gid="0"/>
   <tile gid="0"/>
   <tile gid="0"/>
   <tile gid="0"/>
   <tile gid="0"/>
   <tile gid="0"/>
   <tile gid="0"/>
   <tile gid="0"/>
   <tile gid="0"/>
   <tile gid="0"/>
   <tile gid="0"/>
   <tile gid="0"/>
   <tile gid="0"/>
   <tile gid="0"/>
   <tile gid="0"/>
   <tile gid="0"/>
   <tile gid="0"/>
   <tile gid="0"/>
   <tile gid="0"/>
   <tile gid="0"/>
   <tile gid="0"/>
   <tile gid="0"/>
   <tile gid="0"/>
   <tile gid="0"/>
   <tile gid="0"/>
   <tile gid="0"/>
   <tile gid="0"/>
   <tile gid="0"/>
   <tile gid="0"/>
   <tile gid="0"/>
   <tile gid="0"/>
   <tile gid="0"/>
   <tile gid="0"/>
   <tile gid="0"/>
   <tile gid="0"/>
   <tile gid="0"/>
   <tile gid="0"/>
   <tile gid="0"/>
   <tile gid="0"/>
   <tile gid="0"/>
   <tile gid="0"/>
   <tile gid="0"/>
   <tile gid="0"/>
   <tile gid="0"/>
   <tile gid="0"/>
   <tile gid="0"/>
   <tile gid="0"/>
   <tile gid="0"/>
   <tile gid="0"/>
   <tile gid="0"/>
   <tile gid="0"/>
   <tile gid="0"/>
   <tile gid="0"/>
   <tile gid="0"/>
   <tile gid="0"/>
   <tile gid="0"/>
   <tile gid="0"/>
   <tile gid="0"/>
   <tile gid="0"/>
   <tile gid="0"/>
   <tile gid="0"/>
   <tile gid="0"/>
   <tile gid="0"/>
   <tile gid="0"/>
   <tile gid="0"/>
   <tile gid="0"/>
   <tile gid="0"/>
   <tile gid="0"/>
   <tile gid="0"/>
   <tile gid="0"/>
   <tile gid="0"/>
   <tile gid="0"/>
   <tile gid="0"/>
   <tile gid="0"/>
   <tile gid="0"/>
   <tile gid="0"/>
   <tile gid="0"/>
   <tile gid="0"/>
   <tile gid="0"/>
   <tile gid="0"/>
   <tile gid="0"/>
   <tile gid="0"/>
   <tile gid="0"/>
   <tile gid="0"/>
   <tile gid="0"/>
   <tile gid="0"/>
   <tile gid="0"/>
   <tile gid="0"/>
   <tile gid="0"/>
   <tile gid="0"/>
   <tile gid="0"/>
   <tile gid="0"/>
   <tile gid="0"/>
   <tile gid="0"/>
   <tile gid="0"/>
   <tile gid="0"/>
   <tile gid="0"/>
   <tile gid="0"/>
   <tile gid="0"/>
   <tile gid="0"/>
   <tile gid="0"/>
   <tile gid="0"/>
   <tile gid="0"/>
   <tile gid="0"/>
   <tile gid="0"/>
   <tile gid="0"/>
   <tile gid="0"/>
   <tile gid="0"/>
   <tile gid="0"/>
   <tile gid="0"/>
   <tile gid="0"/>
   <tile gid="0"/>
   <tile gid="0"/>
   <tile gid="0"/>
   <tile gid="0"/>
   <tile gid="0"/>
   <tile gid="0"/>
   <tile gid="0"/>
   <tile gid="0"/>
   <tile gid="0"/>
   <tile gid="0"/>
   <tile gid="0"/>
   <tile gid="0"/>
   <tile gid="0"/>
   <tile gid="0"/>
   <tile gid="0"/>
   <tile gid="0"/>
   <tile gid="0"/>
   <tile gid="0"/>
   <tile gid="0"/>
   <tile gid="0"/>
   <tile gid="0"/>
   <tile gid="0"/>
   <tile gid="0"/>
   <tile gid="0"/>
   <tile gid="0"/>
   <tile gid="0"/>
   <tile gid="0"/>
   <tile gid="0"/>
   <tile gid="0"/>
   <tile gid="0"/>
   <tile gid="0"/>
   <tile gid="0"/>
   <tile gid="0"/>
   <tile gid="0"/>
   <tile gid="0"/>
   <tile gid="0"/>
   <tile gid="0"/>
   <tile gid="0"/>
   <tile gid="0"/>
   <tile gid="0"/>
   <tile gid="0"/>
   <tile gid="0"/>
   <tile gid="0"/>
   <tile gid="0"/>
   <tile gid="0"/>
   <tile gid="0"/>
   <tile gid="0"/>
   <tile gid="0"/>
   <tile gid="0"/>
   <tile gid="0"/>
   <tile gid="0"/>
   <tile gid="0"/>
   <tile gid="0"/>
   <tile gid="0"/>
   <tile gid="0"/>
   <tile gid="0"/>
   <tile gid="0"/>
   <tile gid="0"/>
   <tile gid="0"/>
   <tile gid="0"/>
   <tile gid="0"/>
   <tile gid="0"/>
   <tile gid="0"/>
   <tile gid="0"/>
   <tile gid="0"/>
   <tile gid="0"/>
   <tile gid="0"/>
   <tile gid="0"/>
   <tile gid="0"/>
   <tile gid="0"/>
   <tile gid="0"/>
   <tile gid="0"/>
   <tile gid="0"/>
   <tile gid="0"/>
   <tile gid="0"/>
   <tile gid="0"/>
   <tile gid="0"/>
   <tile gid="0"/>
   <tile gid="0"/>
   <tile gid="0"/>
   <tile gid="0"/>
   <tile gid="0"/>
   <tile gid="0"/>
   <tile gid="0"/>
   <tile gid="0"/>
   <tile gid="0"/>
   <tile gid="0"/>
   <tile gid="0"/>
   <tile gid="0"/>
   <tile gid="0"/>
   <tile gid="0"/>
   <tile gid="0"/>
   <tile gid="0"/>
   <tile gid="0"/>
   <tile gid="0"/>
   <tile gid="0"/>
   <tile gid="0"/>
   <tile gid="0"/>
   <tile gid="0"/>
   <tile gid="0"/>
   <tile gid="0"/>
   <tile gid="0"/>
   <tile gid="0"/>
   <tile gid="0"/>
   <tile gid="0"/>
   <tile gid="0"/>
   <tile gid="0"/>
   <tile gid="0"/>
   <tile gid="0"/>
   <tile gid="0"/>
   <tile gid="0"/>
   <tile gid="0"/>
   <tile gid="0"/>
   <tile gid="0"/>
   <tile gid="0"/>
   <tile gid="0"/>
   <tile gid="0"/>
   <tile gid="0"/>
   <tile gid="0"/>
   <tile gid="0"/>
   <tile gid="0"/>
   <tile gid="0"/>
   <tile gid="0"/>
   <tile gid="0"/>
   <tile gid="0"/>
   <tile gid="0"/>
   <tile gid="0"/>
   <tile gid="1"/>
   <tile gid="2"/>
   <tile gid="2"/>
   <tile gid="2"/>
   <tile gid="2"/>
   <tile gid="3"/>
   <tile gid="0"/>
   <tile gid="0"/>
   <tile gid="0"/>
   <tile gid="1"/>
   <tile gid="2"/>
   <tile gid="2"/>
   <tile gid="2"/>
   <tile gid="3"/>
   <tile gid="0"/>
   <tile gid="1"/>
   <tile gid="2"/>
   <tile gid="2"/>
   <tile gid="2"/>
   <tile gid="2"/>
   <tile gid="2"/>
   <tile gid="2"/>
   <tile gid="2"/>
   <tile gid="2"/>
   <tile gid="2"/>
   <tile gid="3"/>
   <tile gid="0"/>
   <tile gid="0"/>
   <tile gid="0"/>
   <tile gid="1"/>
   <tile gid="2"/>
   <tile gid="2"/>
   <tile gid="2"/>
   <tile gid="2"/>
   <tile gid="2"/>
   <tile gid="2"/>
   <tile gid="2"/>
   <tile gid="2"/>
   <tile gid="2"/>
   <tile gid="2"/>
   <tile gid="2"/>
   <tile gid="3"/>
   <tile gid="0"/>
   <tile gid="0"/>
   <tile gid="0"/>
   <tile gid="0"/>
   <tile gid="0"/>
   <tile gid="1"/>
   <tile gid="2"/>
   <tile gid="2"/>
   <tile gid="2"/>
   <tile gid="2"/>
   <tile gid="3"/>
   <tile gid="0"/>
   <tile gid="0"/>
   <tile gid="0"/>
   <tile gid="0"/>
   <tile gid="0"/>
   <tile gid="0"/>
   <tile gid="0"/>
   <tile gid="0"/>
   <tile gid="0"/>
   <tile gid="0"/>
   <tile gid="0"/>
   <tile gid="0"/>
   <tile gid="0"/>
   <tile gid="0"/>
   <tile gid="0"/>
   <tile gid="0"/>
   <tile gid="0"/>
   <tile gid="0"/>
   <tile gid="0"/>
   <tile gid="0"/>
   <tile gid="0"/>
   <tile gid="0"/>
   <tile gid="0"/>
   <tile gid="0"/>
   <tile gid="0"/>
   <tile gid="0"/>
   <tile gid="0"/>
   <tile gid="0"/>
   <tile gid="0"/>
   <tile gid="0"/>
   <tile gid="0"/>
   <tile gid="0"/>
   <tile gid="0"/>
   <tile gid="0"/>
   <tile gid="0"/>
   <tile gid="0"/>
   <tile gid="0"/>
   <tile gid="0"/>
   <tile gid="0"/>
   <tile gid="0"/>
   <tile gid="0"/>
   <tile gid="0"/>
   <tile gid="0"/>
   <tile gid="0"/>
   <tile gid="0"/>
   <tile gid="0"/>
   <tile gid="0"/>
   <tile gid="0"/>
   <tile gid="0"/>
   <tile gid="0"/>
   <tile gid="0"/>
   <tile gid="0"/>
   <tile gid="0"/>
   <tile gid="0"/>
   <tile gid="0"/>
   <tile gid="0"/>
   <tile gid="0"/>
   <tile gid="0"/>
   <tile gid="0"/>
   <tile gid="0"/>
   <tile gid="0"/>
   <tile gid="0"/>
   <tile gid="0"/>
   <tile gid="0"/>
   <tile gid="0"/>
   <tile gid="0"/>
   <tile gid="0"/>
   <tile gid="0"/>
   <tile gid="0"/>
   <tile gid="0"/>
   <tile gid="0"/>
   <tile gid="0"/>
   <tile gid="0"/>
   <tile gid="0"/>
   <tile gid="0"/>
   <tile gid="0"/>
   <tile gid="0"/>
   <tile gid="0"/>
   <tile gid="0"/>
   <tile gid="0"/>
   <tile gid="0"/>
   <tile gid="0"/>
   <tile gid="0"/>
   <tile gid="0"/>
   <tile gid="0"/>
   <tile gid="0"/>
   <tile gid="0"/>
   <tile gid="0"/>
   <tile gid="0"/>
   <tile gid="0"/>
   <tile gid="0"/>
   <tile gid="0"/>
   <tile gid="0"/>
   <tile gid="0"/>
   <tile gid="0"/>
   <tile gid="0"/>
   <tile gid="0"/>
   <tile gid="0"/>
   <tile gid="0"/>
   <tile gid="0"/>
   <tile gid="0"/>
   <tile gid="0"/>
   <tile gid="0"/>
   <tile gid="0"/>
   <tile gid="0"/>
   <tile gid="0"/>
   <tile gid="0"/>
   <tile gid="0"/>
   <tile gid="0"/>
   <tile gid="0"/>
   <tile gid="0"/>
   <tile gid="0"/>
   <tile gid="0"/>
   <tile gid="0"/>
   <tile gid="0"/>
   <tile gid="0"/>
   <tile gid="0"/>
   <tile gid="0"/>
   <tile gid="0"/>
   <tile gid="0"/>
   <tile gid="0"/>
   <tile gid="0"/>
   <tile gid="0"/>
   <tile gid="0"/>
   <tile gid="0"/>
   <tile gid="0"/>
   <tile gid="0"/>
   <tile gid="0"/>
   <tile gid="0"/>
   <tile gid="0"/>
   <tile gid="0"/>
   <tile gid="0"/>
   <tile gid="0"/>
   <tile gid="0"/>
   <tile gid="0"/>
   <tile gid="0"/>
   <tile gid="0"/>
   <tile gid="0"/>
   <tile gid="0"/>
   <tile gid="0"/>
   <tile gid="0"/>
   <tile gid="0"/>
   <tile gid="0"/>
   <tile gid="0"/>
   <tile gid="0"/>
   <tile gid="0"/>
   <tile gid="0"/>
   <tile gid="0"/>
   <tile gid="0"/>
   <tile gid="0"/>
   <tile gid="0"/>
   <tile gid="0"/>
   <tile gid="0"/>
   <tile gid="0"/>
   <tile gid="0"/>
   <tile gid="0"/>
   <tile gid="0"/>
   <tile gid="1"/>
   <tile gid="2"/>
   <tile gid="3"/>
   <tile gid="1"/>
   <tile gid="2"/>
   <tile gid="2"/>
   <tile gid="2"/>
   <tile gid="3"/>
   <tile gid="0"/>
   <tile gid="0"/>
   <tile gid="0"/>
   <tile gid="0"/>
   <tile gid="0"/>
   <tile gid="0"/>
   <tile gid="0"/>
   <tile gid="0"/>
   <tile gid="0"/>
   <tile gid="0"/>
   <tile gid="0"/>
   <tile gid="0"/>
   <tile gid="0"/>
   <tile gid="0"/>
   <tile gid="0"/>
   <tile gid="0"/>
   <tile gid="0"/>
   <tile gid="0"/>
   <tile gid="0"/>
   <tile gid="0"/>
   <tile gid="0"/>
   <tile gid="0"/>
   <tile gid="0"/>
   <tile gid="0"/>
   <tile gid="0"/>
   <tile gid="0"/>
   <tile gid="0"/>
   <tile gid="0"/>
   <tile gid="0"/>
   <tile gid="0"/>
   <tile gid="0"/>
   <tile gid="0"/>
   <tile gid="0"/>
   <tile gid="0"/>
   <tile gid="0"/>
   <tile gid="0"/>
   <tile gid="0"/>
   <tile gid="0"/>
   <tile gid="0"/>
   <tile gid="0"/>
   <tile gid="0"/>
   <tile gid="0"/>
   <tile gid="0"/>
   <tile gid="0"/>
   <tile gid="0"/>
   <tile gid="0"/>
   <tile gid="0"/>
   <tile gid="0"/>
   <tile gid="0"/>
   <tile gid="0"/>
   <tile gid="0"/>
   <tile gid="0"/>
   <tile gid="0"/>
   <tile gid="0"/>
   <tile gid="0"/>
   <tile gid="0"/>
   <tile gid="0"/>
   <tile gid="0"/>
   <tile gid="0"/>
   <tile gid="0"/>
   <tile gid="0"/>
   <tile gid="0"/>
   <tile gid="0"/>
   <tile gid="0"/>
   <tile gid="0"/>
   <tile gid="0"/>
   <tile gid="0"/>
   <tile gid="0"/>
   <tile gid="0"/>
   <tile gid="0"/>
   <tile gid="0"/>
   <tile gid="0"/>
   <tile gid="0"/>
   <tile gid="0"/>
   <tile gid="0"/>
   <tile gid="0"/>
   <tile gid="0"/>
   <tile gid="0"/>
   <tile gid="0"/>
   <tile gid="0"/>
   <tile gid="0"/>
   <tile gid="0"/>
   <tile gid="0"/>
   <tile gid="0"/>
   <tile gid="0"/>
   <tile gid="0"/>
   <tile gid="0"/>
   <tile gid="0"/>
   <tile gid="0"/>
   <tile gid="0"/>
   <tile gid="0"/>
   <tile gid="0"/>
   <tile gid="0"/>
   <tile gid="0"/>
   <tile gid="0"/>
   <tile gid="0"/>
   <tile gid="0"/>
   <tile gid="0"/>
   <tile gid="0"/>
   <tile gid="0"/>
   <tile gid="0"/>
   <tile gid="0"/>
   <tile gid="0"/>
   <tile gid="0"/>
   <tile gid="0"/>
   <tile gid="0"/>
   <tile gid="0"/>
   <tile gid="0"/>
   <tile gid="0"/>
   <tile gid="0"/>
   <tile gid="0"/>
   <tile gid="0"/>
   <tile gid="0"/>
   <tile gid="0"/>
   <tile gid="0"/>
   <tile gid="0"/>
   <tile gid="0"/>
   <tile gid="0"/>
   <tile gid="0"/>
   <tile gid="0"/>
   <tile gid="0"/>
   <tile gid="0"/>
   <tile gid="0"/>
   <tile gid="0"/>
   <tile gid="0"/>
   <tile gid="0"/>
   <tile gid="0"/>
   <tile gid="0"/>
   <tile gid="0"/>
   <tile gid="1"/>
   <tile gid="2"/>
   <tile gid="2"/>
   <tile gid="2"/>
   <tile gid="2"/>
   <tile gid="2"/>
   <tile gid="2"/>
   <tile gid="2"/>
   <tile gid="2"/>
   <tile gid="3"/>
   <tile gid="0"/>
   <tile gid="0"/>
   <tile gid="0"/>
   <tile gid="0"/>
   <tile gid="1"/>
   <tile gid="2"/>
   <tile gid="2"/>
   <tile gid="2"/>
   <tile gid="2"/>
   <tile gid="2"/>
   <tile gid="2"/>
   <tile gid="2"/>
   <tile gid="2"/>
   <tile gid="2"/>
   <tile gid="2"/>
   <tile gid="2"/>
   <tile gid="2"/>
   <tile gid="2"/>
   <tile gid="2"/>
   <tile gid="2"/>
   <tile gid="2"/>
   <tile gid="2"/>
   <tile gid="3"/>
   <tile gid="0"/>
   <tile gid="0"/>
   <tile gid="0"/>
   <tile gid="0"/>
   <tile gid="0"/>
   <tile gid="0"/>
   <tile gid="0"/>
   <tile gid="0"/>
   <tile gid="0"/>
   <tile gid="0"/>
   <tile gid="0"/>
   <tile gid="0"/>
   <tile gid="0"/>
   <tile gid="0"/>
   <tile gid="0"/>
   <tile gid="0"/>
   <tile gid="0"/>
   <tile gid="0"/>
   <tile gid="0"/>
   <tile gid="0"/>
   <tile gid="0"/>
   <tile gid="0"/>
   <tile gid="0"/>
   <tile gid="0"/>
   <tile gid="0"/>
   <tile gid="0"/>
   <tile gid="0"/>
   <tile gid="0"/>
   <tile gid="0"/>
   <tile gid="0"/>
   <tile gid="0"/>
   <tile gid="0"/>
   <tile gid="0"/>
   <tile gid="0"/>
   <tile gid="0"/>
   <tile gid="0"/>
   <tile gid="0"/>
   <tile gid="0"/>
   <tile gid="0"/>
   <tile gid="0"/>
   <tile gid="0"/>
   <tile gid="0"/>
   <tile gid="0"/>
   <tile gid="0"/>
   <tile gid="0"/>
   <tile gid="0"/>
   <tile gid="0"/>
   <tile gid="0"/>
   <tile gid="0"/>
   <tile gid="0"/>
   <tile gid="0"/>
   <tile gid="0"/>
   <tile gid="0"/>
   <tile gid="0"/>
   <tile gid="0"/>
   <tile gid="0"/>
   <tile gid="0"/>
   <tile gid="0"/>
   <tile gid="0"/>
   <tile gid="0"/>
   <tile gid="0"/>
   <tile gid="0"/>
   <tile gid="0"/>
   <tile gid="0"/>
   <tile gid="0"/>
   <tile gid="0"/>
   <tile gid="0"/>
   <tile gid="0"/>
   <tile gid="0"/>
   <tile gid="0"/>
   <tile gid="0"/>
   <tile gid="0"/>
   <tile gid="0"/>
   <tile gid="0"/>
   <tile gid="0"/>
   <tile gid="0"/>
   <tile gid="0"/>
   <tile gid="0"/>
   <tile gid="0"/>
   <tile gid="0"/>
   <tile gid="0"/>
   <tile gid="0"/>
   <tile gid="0"/>
   <tile gid="0"/>
   <tile gid="0"/>
   <tile gid="0"/>
   <tile gid="0"/>
   <tile gid="0"/>
   <tile gid="0"/>
   <tile gid="0"/>
   <tile gid="0"/>
   <tile gid="0"/>
   <tile gid="0"/>
   <tile gid="0"/>
   <tile gid="0"/>
   <tile gid="0"/>
   <tile gid="0"/>
   <tile gid="0"/>
   <tile gid="0"/>
   <tile gid="0"/>
   <tile gid="0"/>
   <tile gid="0"/>
   <tile gid="0"/>
   <tile gid="0"/>
   <tile gid="0"/>
   <tile gid="0"/>
   <tile gid="0"/>
   <tile gid="0"/>
   <tile gid="0"/>
   <tile gid="0"/>
   <tile gid="0"/>
   <tile gid="0"/>
   <tile gid="0"/>
   <tile gid="0"/>
   <tile gid="0"/>
   <tile gid="0"/>
   <tile gid="0"/>
   <tile gid="0"/>
   <tile gid="0"/>
   <tile gid="0"/>
   <tile gid="0"/>
   <tile gid="0"/>
   <tile gid="0"/>
   <tile gid="0"/>
   <tile gid="0"/>
   <tile gid="0"/>
   <tile gid="0"/>
   <tile gid="0"/>
   <tile gid="0"/>
   <tile gid="0"/>
   <tile gid="0"/>
   <tile gid="0"/>
   <tile gid="0"/>
   <tile gid="0"/>
   <tile gid="0"/>
   <tile gid="0"/>
   <tile gid="0"/>
   <tile gid="0"/>
   <tile gid="0"/>
   <tile gid="0"/>
   <tile gid="0"/>
   <tile gid="0"/>
   <tile gid="0"/>
   <tile gid="0"/>
   <tile gid="0"/>
   <tile gid="0"/>
   <tile gid="0"/>
   <tile gid="0"/>
   <tile gid="0"/>
   <tile gid="0"/>
   <tile gid="0"/>
   <tile gid="0"/>
   <tile gid="0"/>
   <tile gid="0"/>
   <tile gid="0"/>
   <tile gid="0"/>
   <tile gid="0"/>
   <tile gid="0"/>
   <tile gid="0"/>
   <tile gid="0"/>
   <tile gid="0"/>
   <tile gid="0"/>
   <tile gid="0"/>
   <tile gid="0"/>
   <tile gid="0"/>
   <tile gid="0"/>
   <tile gid="0"/>
   <tile gid="0"/>
   <tile gid="0"/>
   <tile gid="0"/>
   <tile gid="0"/>
   <tile gid="0"/>
   <tile gid="0"/>
   <tile gid="0"/>
   <tile gid="0"/>
   <tile gid="0"/>
   <tile gid="0"/>
   <tile gid="0"/>
   <tile gid="0"/>
   <tile gid="0"/>
   <tile gid="0"/>
   <tile gid="0"/>
   <tile gid="0"/>
   <tile gid="0"/>
   <tile gid="0"/>
   <tile gid="0"/>
   <tile gid="0"/>
   <tile gid="0"/>
   <tile gid="0"/>
   <tile gid="0"/>
   <tile gid="0"/>
   <tile gid="0"/>
   <tile gid="0"/>
   <tile gid="0"/>
   <tile gid="0"/>
   <tile gid="1"/>
   <tile gid="2"/>
   <tile gid="2"/>
   <tile gid="2"/>
   <tile gid="2"/>
   <tile gid="2"/>
   <tile gid="2"/>
   <tile gid="2"/>
   <tile gid="2"/>
   <tile gid="2"/>
   <tile gid="2"/>
   <tile gid="2"/>
   <tile gid="2"/>
   <tile gid="2"/>
   <tile gid="2"/>
   <tile gid="2"/>
   <tile gid="2"/>
   <tile gid="2"/>
   <tile gid="3"/>
   <tile gid="0"/>
   <tile gid="0"/>
   <tile gid="0"/>
   <tile gid="0"/>
   <tile gid="0"/>
   <tile gid="0"/>
   <tile gid="0"/>
   <tile gid="0"/>
   <tile gid="0"/>
   <tile gid="0"/>
   <tile gid="0"/>
   <tile gid="0"/>
   <tile gid="0"/>
   <tile gid="0"/>
   <tile gid="0"/>
   <tile gid="0"/>
   <tile gid="0"/>
   <tile gid="0"/>
   <tile gid="0"/>
   <tile gid="0"/>
   <tile gid="0"/>
   <tile gid="0"/>
   <tile gid="0"/>
   <tile gid="0"/>
   <tile gid="0"/>
   <tile gid="0"/>
   <tile gid="0"/>
   <tile gid="0"/>
   <tile gid="0"/>
   <tile gid="0"/>
   <tile gid="0"/>
   <tile gid="0"/>
   <tile gid="0"/>
   <tile gid="0"/>
   <tile gid="0"/>
   <tile gid="0"/>
   <tile gid="0"/>
   <tile gid="0"/>
   <tile gid="0"/>
   <tile gid="0"/>
   <tile gid="0"/>
   <tile gid="0"/>
   <tile gid="0"/>
   <tile gid="0"/>
   <tile gid="0"/>
   <tile gid="0"/>
   <tile gid="0"/>
   <tile gid="0"/>
   <tile gid="0"/>
   <tile gid="0"/>
   <tile gid="0"/>
   <tile gid="0"/>
   <tile gid="0"/>
   <tile gid="0"/>
   <tile gid="0"/>
   <tile gid="0"/>
   <tile gid="0"/>
   <tile gid="0"/>
   <tile gid="0"/>
   <tile gid="0"/>
   <tile gid="0"/>
   <tile gid="0"/>
   <tile gid="0"/>
   <tile gid="0"/>
   <tile gid="0"/>
   <tile gid="0"/>
   <tile gid="0"/>
   <tile gid="0"/>
   <tile gid="0"/>
   <tile gid="0"/>
   <tile gid="0"/>
   <tile gid="0"/>
   <tile gid="0"/>
   <tile gid="0"/>
   <tile gid="0"/>
   <tile gid="0"/>
   <tile gid="0"/>
   <tile gid="0"/>
   <tile gid="0"/>
   <tile gid="0"/>
   <tile gid="0"/>
   <tile gid="0"/>
   <tile gid="0"/>
   <tile gid="0"/>
   <tile gid="0"/>
   <tile gid="0"/>
   <tile gid="0"/>
   <tile gid="0"/>
   <tile gid="0"/>
   <tile gid="0"/>
   <tile gid="0"/>
   <tile gid="0"/>
   <tile gid="0"/>
   <tile gid="0"/>
   <tile gid="0"/>
   <tile gid="0"/>
   <tile gid="0"/>
   <tile gid="0"/>
   <tile gid="0"/>
   <tile gid="0"/>
   <tile gid="0"/>
   <tile gid="0"/>
   <tile gid="0"/>
   <tile gid="0"/>
   <tile gid="0"/>
   <tile gid="0"/>
   <tile gid="0"/>
   <tile gid="0"/>
   <tile gid="0"/>
   <tile gid="0"/>
   <tile gid="0"/>
   <tile gid="0"/>
   <tile gid="0"/>
   <tile gid="0"/>
   <tile gid="0"/>
   <tile gid="0"/>
   <tile gid="0"/>
   <tile gid="0"/>
   <tile gid="0"/>
   <tile gid="0"/>
   <tile gid="0"/>
   <tile gid="0"/>
   <tile gid="0"/>
   <tile gid="0"/>
   <tile gid="0"/>
   <tile gid="0"/>
   <tile gid="0"/>
   <tile gid="0"/>
   <tile gid="0"/>
   <tile gid="0"/>
   <tile gid="0"/>
   <tile gid="0"/>
   <tile gid="0"/>
   <tile gid="0"/>
   <tile gid="0"/>
   <tile gid="0"/>
   <tile gid="0"/>
   <tile gid="0"/>
   <tile gid="0"/>
   <tile gid="0"/>
   <tile gid="0"/>
   <tile gid="0"/>
   <tile gid="0"/>
   <tile gid="0"/>
   <tile gid="0"/>
   <tile gid="0"/>
   <tile gid="0"/>
   <tile gid="0"/>
   <tile gid="0"/>
   <tile gid="0"/>
   <tile gid="0"/>
   <tile gid="0"/>
   <tile gid="0"/>
   <tile gid="0"/>
   <tile gid="0"/>
   <tile gid="0"/>
   <tile gid="0"/>
   <tile gid="0"/>
   <tile gid="0"/>
   <tile gid="0"/>
   <tile gid="0"/>
   <tile gid="0"/>
   <tile gid="0"/>
   <tile gid="0"/>
   <tile gid="0"/>
   <tile gid="0"/>
   <tile gid="0"/>
   <tile gid="0"/>
   <tile gid="0"/>
   <tile gid="0"/>
   <tile gid="0"/>
   <tile gid="0"/>
   <tile gid="0"/>
   <tile gid="0"/>
   <tile gid="0"/>
   <tile gid="0"/>
   <tile gid="0"/>
   <tile gid="0"/>
   <tile gid="0"/>
   <tile gid="0"/>
   <tile gid="0"/>
   <tile gid="0"/>
   <tile gid="0"/>
   <tile gid="0"/>
   <tile gid="0"/>
   <tile gid="0"/>
   <tile gid="0"/>
   <tile gid="0"/>
   <tile gid="0"/>
   <tile gid="0"/>
   <tile gid="0"/>
   <tile gid="0"/>
   <tile gid="0"/>
   <tile gid="0"/>
   <tile gid="0"/>
   <tile gid="0"/>
   <tile gid="0"/>
   <tile gid="0"/>
   <tile gid="0"/>
   <tile gid="0"/>
   <tile gid="0"/>
   <tile gid="0"/>
   <tile gid="0"/>
   <tile gid="0"/>
   <tile gid="0"/>
   <tile gid="0"/>
   <tile gid="0"/>
   <tile gid="0"/>
   <tile gid="0"/>
   <tile gid="0"/>
   <tile gid="0"/>
   <tile gid="0"/>
   <tile gid="0"/>
   <tile gid="0"/>
   <tile gid="0"/>
   <tile gid="0"/>
   <tile gid="0"/>
   <tile gid="0"/>
   <tile gid="0"/>
   <tile gid="0"/>
   <tile gid="0"/>
   <tile gid="0"/>
   <tile gid="0"/>
   <tile gid="0"/>
   <tile gid="0"/>
   <tile gid="0"/>
   <tile gid="0"/>
   <tile gid="0"/>
   <tile gid="0"/>
   <tile gid="0"/>
   <tile gid="0"/>
   <tile gid="0"/>
   <tile gid="0"/>
   <tile gid="0"/>
   <tile gid="0"/>
   <tile gid="0"/>
   <tile gid="0"/>
   <tile gid="0"/>
   <tile gid="0"/>
   <tile gid="0"/>
   <tile gid="0"/>
   <tile gid="0"/>
   <tile gid="0"/>
   <tile gid="0"/>
   <tile gid="0"/>
   <tile gid="0"/>
   <tile gid="0"/>
   <tile gid="0"/>
   <tile gid="0"/>
   <tile gid="0"/>
   <tile gid="0"/>
   <tile gid="0"/>
   <tile gid="0"/>
   <tile gid="0"/>
   <tile gid="0"/>
   <tile gid="0"/>
   <tile gid="0"/>
   <tile gid="0"/>
   <tile gid="0"/>
   <tile gid="0"/>
   <tile gid="0"/>
   <tile gid="0"/>
   <tile gid="0"/>
   <tile gid="0"/>
   <tile gid="0"/>
   <tile gid="0"/>
   <tile gid="0"/>
   <tile gid="0"/>
   <tile gid="0"/>
   <tile gid="0"/>
   <tile gid="0"/>
   <tile gid="0"/>
   <tile gid="0"/>
   <tile gid="0"/>
   <tile gid="0"/>
   <tile gid="0"/>
   <tile gid="0"/>
   <tile gid="0"/>
   <tile gid="0"/>
   <tile gid="0"/>
   <tile gid="0"/>
   <tile gid="0"/>
   <tile gid="0"/>
   <tile gid="0"/>
   <tile gid="0"/>
   <tile gid="0"/>
   <tile gid="0"/>
   <tile gid="0"/>
   <tile gid="0"/>
   <tile gid="0"/>
   <tile gid="0"/>
   <tile gid="0"/>
   <tile gid="0"/>
   <tile gid="0"/>
   <tile gid="0"/>
   <tile gid="0"/>
   <tile gid="0"/>
   <tile gid="0"/>
   <tile gid="0"/>
   <tile gid="0"/>
   <tile gid="0"/>
  </data>
 </layer>
 <layer name="foreground" width="56" height="26">
  <data>
   <tile gid="0"/>
   <tile gid="0"/>
   <tile gid="0"/>
   <tile gid="0"/>
   <tile gid="0"/>
   <tile gid="0"/>
   <tile gid="0"/>
   <tile gid="0"/>
   <tile gid="0"/>
   <tile gid="0"/>
   <tile gid="0"/>
   <tile gid="0"/>
   <tile gid="0"/>
   <tile gid="0"/>
   <tile gid="0"/>
   <tile gid="0"/>
   <tile gid="0"/>
   <tile gid="0"/>
   <tile gid="0"/>
   <tile gid="0"/>
   <tile gid="0"/>
   <tile gid="0"/>
   <tile gid="0"/>
   <tile gid="0"/>
   <tile gid="0"/>
   <tile gid="0"/>
   <tile gid="0"/>
   <tile gid="0"/>
   <tile gid="0"/>
   <tile gid="0"/>
   <tile gid="0"/>
   <tile gid="0"/>
   <tile gid="0"/>
   <tile gid="0"/>
   <tile gid="0"/>
   <tile gid="0"/>
   <tile gid="0"/>
   <tile gid="0"/>
   <tile gid="0"/>
   <tile gid="0"/>
   <tile gid="0"/>
   <tile gid="0"/>
   <tile gid="0"/>
   <tile gid="0"/>
   <tile gid="0"/>
   <tile gid="0"/>
   <tile gid="0"/>
   <tile gid="0"/>
   <tile gid="0"/>
   <tile gid="0"/>
   <tile gid="0"/>
   <tile gid="0"/>
   <tile gid="0"/>
   <tile gid="0"/>
   <tile gid="0"/>
   <tile gid="0"/>
   <tile gid="0"/>
   <tile gid="0"/>
   <tile gid="0"/>
   <tile gid="0"/>
   <tile gid="0"/>
   <tile gid="0"/>
   <tile gid="0"/>
   <tile gid="0"/>
   <tile gid="0"/>
   <tile gid="0"/>
   <tile gid="0"/>
   <tile gid="0"/>
   <tile gid="0"/>
   <tile gid="0"/>
   <tile gid="0"/>
   <tile gid="0"/>
   <tile gid="0"/>
   <tile gid="0"/>
   <tile gid="0"/>
   <tile gid="0"/>
   <tile gid="0"/>
   <tile gid="0"/>
   <tile gid="0"/>
   <tile gid="0"/>
   <tile gid="0"/>
   <tile gid="0"/>
   <tile gid="0"/>
   <tile gid="0"/>
   <tile gid="0"/>
   <tile gid="0"/>
   <tile gid="0"/>
   <tile gid="0"/>
   <tile gid="0"/>
   <tile gid="0"/>
   <tile gid="0"/>
   <tile gid="0"/>
   <tile gid="0"/>
   <tile gid="0"/>
   <tile gid="0"/>
   <tile gid="0"/>
   <tile gid="0"/>
   <tile gid="0"/>
   <tile gid="0"/>
   <tile gid="0"/>
   <tile gid="0"/>
   <tile gid="0"/>
   <tile gid="0"/>
   <tile gid="0"/>
   <tile gid="0"/>
   <tile gid="0"/>
   <tile gid="0"/>
   <tile gid="0"/>
   <tile gid="0"/>
   <tile gid="0"/>
   <tile gid="0"/>
   <tile gid="0"/>
   <tile gid="0"/>
   <tile gid="0"/>
   <tile gid="0"/>
   <tile gid="0"/>
   <tile gid="0"/>
   <tile gid="0"/>
   <tile gid="0"/>
   <tile gid="0"/>
   <tile gid="0"/>
   <tile gid="0"/>
   <tile gid="0"/>
   <tile gid="0"/>
   <tile gid="0"/>
   <tile gid="0"/>
   <tile gid="0"/>
   <tile gid="0"/>
   <tile gid="0"/>
   <tile gid="0"/>
   <tile gid="0"/>
   <tile gid="0"/>
   <tile gid="0"/>
   <tile gid="0"/>
   <tile gid="0"/>
   <tile gid="0"/>
   <tile gid="0"/>
   <tile gid="0"/>
   <tile gid="0"/>
   <tile gid="0"/>
   <tile gid="0"/>
   <tile gid="0"/>
   <tile gid="0"/>
   <tile gid="0"/>
   <tile gid="0"/>
   <tile gid="0"/>
   <tile gid="0"/>
   <tile gid="0"/>
   <tile gid="0"/>
   <tile gid="0"/>
   <tile gid="0"/>
   <tile gid="0"/>
   <tile gid="0"/>
   <tile gid="0"/>
   <tile gid="0"/>
   <tile gid="0"/>
   <tile gid="0"/>
   <tile gid="0"/>
   <tile gid="0"/>
   <tile gid="0"/>
   <tile gid="0"/>
   <tile gid="0"/>
   <tile gid="0"/>
   <tile gid="0"/>
   <tile gid="0"/>
   <tile gid="0"/>
   <tile gid="0"/>
   <tile gid="0"/>
   <tile gid="0"/>
   <tile gid="0"/>
   <tile gid="0"/>
   <tile gid="0"/>
   <tile gid="0"/>
   <tile gid="0"/>
   <tile gid="0"/>
   <tile gid="0"/>
   <tile gid="0"/>
   <tile gid="0"/>
   <tile gid="0"/>
   <tile gid="0"/>
   <tile gid="0"/>
   <tile gid="0"/>
   <tile gid="0"/>
   <tile gid="0"/>
   <tile gid="0"/>
   <tile gid="0"/>
   <tile gid="0"/>
   <tile gid="0"/>
   <tile gid="0"/>
   <tile gid="0"/>
   <tile gid="0"/>
   <tile gid="0"/>
   <tile gid="0"/>
   <tile gid="0"/>
   <tile gid="0"/>
   <tile gid="0"/>
   <tile gid="0"/>
   <tile gid="0"/>
   <tile gid="0"/>
   <tile gid="0"/>
   <tile gid="0"/>
   <tile gid="0"/>
   <tile gid="0"/>
   <tile gid="0"/>
   <tile gid="0"/>
   <tile gid="0"/>
   <tile gid="0"/>
   <tile gid="0"/>
   <tile gid="0"/>
   <tile gid="0"/>
   <tile gid="0"/>
   <tile gid="0"/>
   <tile gid="0"/>
   <tile gid="0"/>
   <tile gid="0"/>
   <tile gid="0"/>
   <tile gid="0"/>
   <tile gid="0"/>
   <tile gid="0"/>
   <tile gid="0"/>
   <tile gid="0"/>
   <tile gid="0"/>
   <tile gid="0"/>
   <tile gid="0"/>
   <tile gid="0"/>
   <tile gid="0"/>
   <tile gid="0"/>
   <tile gid="0"/>
   <tile gid="0"/>
   <tile gid="0"/>
   <tile gid="0"/>
   <tile gid="0"/>
   <tile gid="0"/>
   <tile gid="0"/>
   <tile gid="0"/>
   <tile gid="0"/>
   <tile gid="0"/>
   <tile gid="0"/>
   <tile gid="0"/>
   <tile gid="0"/>
   <tile gid="0"/>
   <tile gid="0"/>
   <tile gid="0"/>
   <tile gid="0"/>
   <tile gid="0"/>
   <tile gid="0"/>
   <tile gid="0"/>
   <tile gid="0"/>
   <tile gid="0"/>
   <tile gid="0"/>
   <tile gid="0"/>
   <tile gid="0"/>
   <tile gid="0"/>
   <tile gid="0"/>
   <tile gid="0"/>
   <tile gid="0"/>
   <tile gid="0"/>
   <tile gid="0"/>
   <tile gid="0"/>
   <tile gid="0"/>
   <tile gid="0"/>
   <tile gid="0"/>
   <tile gid="0"/>
   <tile gid="0"/>
   <tile gid="0"/>
   <tile gid="0"/>
   <tile gid="0"/>
   <tile gid="0"/>
   <tile gid="0"/>
   <tile gid="0"/>
   <tile gid="0"/>
   <tile gid="0"/>
   <tile gid="0"/>
   <tile gid="0"/>
   <tile gid="0"/>
   <tile gid="0"/>
   <tile gid="0"/>
   <tile gid="0"/>
   <tile gid="0"/>
   <tile gid="0"/>
   <tile gid="0"/>
   <tile gid="0"/>
   <tile gid="0"/>
   <tile gid="0"/>
   <tile gid="0"/>
   <tile gid="0"/>
   <tile gid="0"/>
   <tile gid="0"/>
   <tile gid="0"/>
   <tile gid="0"/>
   <tile gid="0"/>
   <tile gid="0"/>
   <tile gid="0"/>
   <tile gid="0"/>
   <tile gid="0"/>
   <tile gid="0"/>
   <tile gid="0"/>
   <tile gid="0"/>
   <tile gid="0"/>
   <tile gid="0"/>
   <tile gid="0"/>
   <tile gid="0"/>
   <tile gid="0"/>
   <tile gid="0"/>
   <tile gid="0"/>
   <tile gid="0"/>
   <tile gid="0"/>
   <tile gid="0"/>
   <tile gid="0"/>
   <tile gid="0"/>
   <tile gid="0"/>
   <tile gid="0"/>
   <tile gid="0"/>
   <tile gid="0"/>
   <tile gid="0"/>
   <tile gid="0"/>
   <tile gid="0"/>
   <tile gid="0"/>
   <tile gid="0"/>
   <tile gid="0"/>
   <tile gid="0"/>
   <tile gid="0"/>
   <tile gid="0"/>
   <tile gid="0"/>
   <tile gid="0"/>
   <tile gid="0"/>
   <tile gid="0"/>
   <tile gid="0"/>
   <tile gid="0"/>
   <tile gid="0"/>
   <tile gid="0"/>
   <tile gid="0"/>
   <tile gid="0"/>
   <tile gid="0"/>
   <tile gid="0"/>
   <tile gid="0"/>
   <tile gid="0"/>
   <tile gid="0"/>
   <tile gid="0"/>
   <tile gid="0"/>
   <tile gid="0"/>
   <tile gid="0"/>
   <tile gid="0"/>
   <tile gid="0"/>
   <tile gid="0"/>
   <tile gid="0"/>
   <tile gid="0"/>
   <tile gid="0"/>
   <tile gid="0"/>
   <tile gid="0"/>
   <tile gid="0"/>
   <tile gid="0"/>
   <tile gid="0"/>
   <tile gid="0"/>
   <tile gid="0"/>
   <tile gid="0"/>
   <tile gid="0"/>
   <tile gid="0"/>
   <tile gid="0"/>
   <tile gid="0"/>
   <tile gid="0"/>
   <tile gid="0"/>
   <tile gid="0"/>
   <tile gid="0"/>
   <tile gid="0"/>
   <tile gid="0"/>
   <tile gid="0"/>
   <tile gid="0"/>
   <tile gid="0"/>
   <tile gid="0"/>
   <tile gid="0"/>
   <tile gid="0"/>
   <tile gid="0"/>
   <tile gid="0"/>
   <tile gid="0"/>
   <tile gid="0"/>
   <tile gid="0"/>
   <tile gid="0"/>
   <tile gid="0"/>
   <tile gid="0"/>
   <tile gid="0"/>
   <tile gid="0"/>
   <tile gid="0"/>
   <tile gid="0"/>
   <tile gid="0"/>
   <tile gid="0"/>
   <tile gid="0"/>
   <tile gid="0"/>
   <tile gid="0"/>
   <tile gid="0"/>
   <tile gid="0"/>
   <tile gid="0"/>
   <tile gid="0"/>
   <tile gid="0"/>
   <tile gid="0"/>
   <tile gid="0"/>
   <tile gid="0"/>
   <tile gid="0"/>
   <tile gid="0"/>
   <tile gid="0"/>
   <tile gid="0"/>
   <tile gid="0"/>
   <tile gid="0"/>
   <tile gid="0"/>
   <tile gid="0"/>
   <tile gid="0"/>
   <tile gid="0"/>
   <tile gid="0"/>
   <tile gid="0"/>
   <tile gid="0"/>
   <tile gid="0"/>
   <tile gid="0"/>
   <tile gid="0"/>
   <tile gid="0"/>
   <tile gid="0"/>
   <tile gid="0"/>
   <tile gid="0"/>
   <tile gid="0"/>
   <tile gid="0"/>
   <tile gid="0"/>
   <tile gid="0"/>
   <tile gid="0"/>
   <tile gid="0"/>
   <tile gid="0"/>
   <tile gid="0"/>
   <tile gid="0"/>
   <tile gid="0"/>
   <tile gid="0"/>
   <tile gid="0"/>
   <tile gid="0"/>
   <tile gid="0"/>
   <tile gid="0"/>
   <tile gid="0"/>
   <tile gid="0"/>
   <tile gid="0"/>
   <tile gid="0"/>
   <tile gid="0"/>
   <tile gid="0"/>
   <tile gid="0"/>
   <tile gid="0"/>
   <tile gid="0"/>
   <tile gid="0"/>
   <tile gid="0"/>
   <tile gid="0"/>
   <tile gid="0"/>
   <tile gid="0"/>
   <tile gid="0"/>
   <tile gid="0"/>
   <tile gid="0"/>
   <tile gid="0"/>
   <tile gid="0"/>
   <tile gid="0"/>
   <tile gid="0"/>
   <tile gid="0"/>
   <tile gid="0"/>
   <tile gid="0"/>
   <tile gid="0"/>
   <tile gid="0"/>
   <tile gid="0"/>
   <tile gid="0"/>
   <tile gid="0"/>
   <tile gid="0"/>
   <tile gid="0"/>
   <tile gid="0"/>
   <tile gid="0"/>
   <tile gid="0"/>
   <tile gid="0"/>
   <tile gid="0"/>
   <tile gid="0"/>
   <tile gid="0"/>
   <tile gid="0"/>
   <tile gid="0"/>
   <tile gid="0"/>
   <tile gid="0"/>
   <tile gid="0"/>
   <tile gid="0"/>
   <tile gid="0"/>
   <tile gid="0"/>
   <tile gid="0"/>
   <tile gid="0"/>
   <tile gid="0"/>
   <tile gid="0"/>
   <tile gid="0"/>
   <tile gid="0"/>
   <tile gid="0"/>
   <tile gid="0"/>
   <tile gid="0"/>
   <tile gid="0"/>
   <tile gid="0"/>
   <tile gid="0"/>
   <tile gid="0"/>
   <tile gid="0"/>
   <tile gid="0"/>
   <tile gid="0"/>
   <tile gid="0"/>
   <tile gid="0"/>
   <tile gid="0"/>
   <tile gid="0"/>
   <tile gid="0"/>
   <tile gid="0"/>
   <tile gid="0"/>
   <tile gid="0"/>
   <tile gid="0"/>
   <tile gid="0"/>
   <tile gid="0"/>
   <tile gid="0"/>
   <tile gid="0"/>
   <tile gid="8"/>
   <tile gid="0"/>
   <tile gid="0"/>
   <tile gid="0"/>
   <tile gid="0"/>
   <tile gid="0"/>
   <tile gid="0"/>
   <tile gid="0"/>
   <tile gid="0"/>
   <tile gid="0"/>
   <tile gid="0"/>
   <tile gid="0"/>
   <tile gid="0"/>
   <tile gid="0"/>
   <tile gid="0"/>
   <tile gid="0"/>
   <tile gid="0"/>
   <tile gid="0"/>
   <tile gid="0"/>
   <tile gid="0"/>
   <tile gid="0"/>
   <tile gid="0"/>
   <tile gid="0"/>
   <tile gid="0"/>
   <tile gid="0"/>
   <tile gid="0"/>
   <tile gid="0"/>
   <tile gid="0"/>
   <tile gid="0"/>
   <tile gid="0"/>
   <tile gid="0"/>
   <tile gid="0"/>
   <tile gid="0"/>
   <tile gid="0"/>
   <tile gid="0"/>
   <tile gid="0"/>
   <tile gid="0"/>
   <tile gid="5"/>
   <tile gid="0"/>
   <tile gid="0"/>
   <tile gid="0"/>
   <tile gid="0"/>
   <tile gid="0"/>
   <tile gid="0"/>
   <tile gid="0"/>
   <tile gid="5"/>
   <tile gid="0"/>
   <tile gid="0"/>
   <tile gid="0"/>
   <tile gid="0"/>
   <tile gid="0"/>
   <tile gid="0"/>
   <tile gid="0"/>
   <tile gid="0"/>
   <tile gid="0"/>
   <tile gid="0"/>
   <tile gid="0"/>
   <tile gid="0"/>
   <tile gid="0"/>
   <tile gid="0"/>
   <tile gid="0"/>
   <tile gid="0"/>
   <tile gid="0"/>
   <tile gid="0"/>
   <tile gid="0"/>
   <tile gid="0"/>
   <tile gid="0"/>
   <tile gid="0"/>
   <tile gid="0"/>
   <tile gid="0"/>
   <tile gid="0"/>
   <tile gid="0"/>
   <tile gid="0"/>
   <tile gid="0"/>
   <tile gid="0"/>
   <tile gid="0"/>
   <tile gid="0"/>
   <tile gid="0"/>
   <tile gid="0"/>
   <tile gid="0"/>
   <tile gid="0"/>
   <tile gid="0"/>
   <tile gid="0"/>
   <tile gid="0"/>
   <tile gid="0"/>
   <tile gid="0"/>
   <tile gid="0"/>
   <tile gid="0"/>
   <tile gid="0"/>
   <tile gid="0"/>
   <tile gid="0"/>
   <tile gid="0"/>
   <tile gid="0"/>
   <tile gid="0"/>
   <tile gid="0"/>
   <tile gid="0"/>
   <tile gid="0"/>
   <tile gid="0"/>
   <tile gid="0"/>
   <tile gid="0"/>
   <tile gid="0"/>
   <tile gid="0"/>
   <tile gid="0"/>
   <tile gid="0"/>
   <tile gid="0"/>
   <tile gid="0"/>
   <tile gid="0"/>
   <tile gid="0"/>
   <tile gid="0"/>
   <tile gid="0"/>
   <tile gid="0"/>
   <tile gid="0"/>
   <tile gid="0"/>
   <tile gid="0"/>
   <tile gid="0"/>
   <tile gid="0"/>
   <tile gid="0"/>
   <tile gid="0"/>
   <tile gid="0"/>
   <tile gid="0"/>
   <tile gid="0"/>
   <tile gid="0"/>
   <tile gid="0"/>
   <tile gid="0"/>
   <tile gid="0"/>
   <tile gid="0"/>
   <tile gid="0"/>
   <tile gid="0"/>
   <tile gid="0"/>
   <tile gid="0"/>
   <tile gid="0"/>
   <tile gid="0"/>
   <tile gid="0"/>
   <tile gid="0"/>
   <tile gid="0"/>
   <tile gid="0"/>
   <tile gid="0"/>
   <tile gid="0"/>
   <tile gid="0"/>
   <tile gid="0"/>
   <tile gid="0"/>
   <tile gid="0"/>
   <tile gid="0"/>
   <tile gid="0"/>
   <tile gid="0"/>
   <tile gid="0"/>
   <tile gid="0"/>
   <tile gid="0"/>
   <tile gid="0"/>
   <tile gid="0"/>
   <tile gid="0"/>
   <tile gid="0"/>
   <tile gid="0"/>
   <tile gid="0"/>
   <tile gid="0"/>
   <tile gid="0"/>
   <tile gid="0"/>
   <tile gid="0"/>
   <tile gid="0"/>
   <tile gid="0"/>
   <tile gid="0"/>
   <tile gid="0"/>
   <tile gid="0"/>
   <tile gid="0"/>
   <tile gid="0"/>
   <tile gid="0"/>
   <tile gid="0"/>
   <tile gid="0"/>
   <tile gid="0"/>
   <tile gid="0"/>
   <tile gid="0"/>
   <tile gid="0"/>
   <tile gid="0"/>
   <tile gid="0"/>
   <tile gid="0"/>
   <tile gid="0"/>
   <tile gid="0"/>
   <tile gid="0"/>
   <tile gid="0"/>
   <tile gid="0"/>
   <tile gid="0"/>
   <tile gid="0"/>
   <tile gid="0"/>
   <tile gid="0"/>
   <tile gid="0"/>
   <tile gid="0"/>
   <tile gid="0"/>
   <tile gid="0"/>
   <tile gid="0"/>
   <tile gid="0"/>
   <tile gid="0"/>
   <tile gid="0"/>
   <tile gid="0"/>
   <tile gid="0"/>
   <tile gid="0"/>
   <tile gid="0"/>
   <tile gid="0"/>
   <tile gid="0"/>
   <tile gid="0"/>
   <tile gid="0"/>
   <tile gid="0"/>
   <tile gid="0"/>
   <tile gid="0"/>
   <tile gid="0"/>
   <tile gid="0"/>
   <tile gid="0"/>
   <tile gid="0"/>
   <tile gid="0"/>
   <tile gid="0"/>
   <tile gid="0"/>
   <tile gid="0"/>
   <tile gid="0"/>
   <tile gid="0"/>
   <tile gid="0"/>
   <tile gid="0"/>
   <tile gid="0"/>
   <tile gid="0"/>
   <tile gid="0"/>
   <tile gid="0"/>
   <tile gid="0"/>
   <tile gid="0"/>
   <tile gid="0"/>
   <tile gid="0"/>
   <tile gid="0"/>
   <tile gid="0"/>
   <tile gid="0"/>
   <tile gid="0"/>
   <tile gid="0"/>
   <tile gid="0"/>
   <tile gid="0"/>
   <tile gid="0"/>
   <tile gid="0"/>
   <tile gid="0"/>
   <tile gid="0"/>
   <tile gid="0"/>
   <tile gid="0"/>
   <tile gid="0"/>
   <tile gid="0"/>
   <tile gid="0"/>
   <tile gid="0"/>
   <tile gid="0"/>
   <tile gid="0"/>
   <tile gid="0"/>
   <tile gid="0"/>
   <tile gid="0"/>
   <tile gid="0"/>
   <tile gid="0"/>
   <tile gid="0"/>
   <tile gid="0"/>
   <tile gid="0"/>
   <tile gid="0"/>
   <tile gid="0"/>
   <tile gid="0"/>
   <tile gid="0"/>
   <tile gid="0"/>
   <tile gid="0"/>
   <tile gid="0"/>
   <tile gid="0"/>
   <tile gid="0"/>
   <tile gid="0"/>
   <tile gid="0"/>
   <tile gid="0"/>
   <tile gid="0"/>
   <tile gid="0"/>
   <tile gid="0"/>
   <tile gid="0"/>
   <tile gid="0"/>
   <tile gid="0"/>
   <tile gid="0"/>
   <tile gid="0"/>
   <tile gid="0"/>
   <tile gid="0"/>
   <tile gid="0"/>
   <tile gid="0"/>
   <tile gid="0"/>
   <tile gid="0"/>
   <tile gid="0"/>
   <tile gid="0"/>
   <tile gid="0"/>
   <tile gid="0"/>
   <tile gid="0"/>
   <tile gid="0"/>
   <tile gid="0"/>
   <tile gid="0"/>
   <tile gid="0"/>
   <tile gid="0"/>
   <tile gid="0"/>
   <tile gid="0"/>
   <tile gid="0"/>
   <tile gid="0"/>
   <tile gid="0"/>
   <tile gid="0"/>
   <tile gid="0"/>
   <tile gid="0"/>
   <tile gid="0"/>
   <tile gid="0"/>
   <tile gid="0"/>
   <tile gid="0"/>
   <tile gid="0"/>
   <tile gid="0"/>
   <tile gid="0"/>
   <tile gid="0"/>
   <tile gid="0"/>
   <tile gid="0"/>
   <tile gid="0"/>
   <tile gid="0"/>
   <tile gid="0"/>
   <tile gid="0"/>
   <tile gid="0"/>
   <tile gid="0"/>
   <tile gid="0"/>
   <tile gid="0"/>
   <tile gid="0"/>
   <tile gid="0"/>
   <tile gid="0"/>
   <tile gid="0"/>
   <tile gid="0"/>
   <tile gid="0"/>
   <tile gid="0"/>
   <tile gid="0"/>
   <tile gid="0"/>
   <tile gid="0"/>
   <tile gid="0"/>
   <tile gid="0"/>
   <tile gid="0"/>
   <tile gid="0"/>
   <tile gid="0"/>
   <tile gid="0"/>
   <tile gid="0"/>
   <tile gid="0"/>
   <tile gid="0"/>
   <tile gid="0"/>
   <tile gid="0"/>
   <tile gid="0"/>
   <tile gid="0"/>
   <tile gid="0"/>
   <tile gid="0"/>
   <tile gid="0"/>
   <tile gid="0"/>
   <tile gid="0"/>
   <tile gid="0"/>
   <tile gid="0"/>
   <tile gid="0"/>
   <tile gid="0"/>
   <tile gid="0"/>
   <tile gid="0"/>
   <tile gid="0"/>
   <tile gid="0"/>
   <tile gid="0"/>
   <tile gid="0"/>
   <tile gid="5"/>
   <tile gid="0"/>
   <tile gid="0"/>
   <tile gid="0"/>
   <tile gid="0"/>
   <tile gid="0"/>
   <tile gid="0"/>
   <tile gid="0"/>
   <tile gid="0"/>
   <tile gid="0"/>
   <tile gid="0"/>
   <tile gid="0"/>
   <tile gid="0"/>
   <tile gid="0"/>
   <tile gid="0"/>
   <tile gid="0"/>
   <tile gid="5"/>
   <tile gid="0"/>
   <tile gid="6"/>
   <tile gid="0"/>
   <tile gid="0"/>
   <tile gid="0"/>
   <tile gid="0"/>
   <tile gid="0"/>
   <tile gid="0"/>
   <tile gid="0"/>
   <tile gid="0"/>
   <tile gid="0"/>
   <tile gid="0"/>
   <tile gid="0"/>
   <tile gid="0"/>
   <tile gid="0"/>
   <tile gid="0"/>
   <tile gid="0"/>
   <tile gid="0"/>
   <tile gid="0"/>
   <tile gid="0"/>
   <tile gid="0"/>
   <tile gid="0"/>
   <tile gid="0"/>
   <tile gid="0"/>
   <tile gid="0"/>
   <tile gid="0"/>
   <tile gid="0"/>
   <tile gid="0"/>
   <tile gid="0"/>
   <tile gid="0"/>
   <tile gid="0"/>
   <tile gid="0"/>
   <tile gid="0"/>
   <tile gid="0"/>
   <tile gid="0"/>
   <tile gid="0"/>
   <tile gid="0"/>
   <tile gid="0"/>
   <tile gid="0"/>
   <tile gid="0"/>
   <tile gid="0"/>
   <tile gid="0"/>
   <tile gid="0"/>
   <tile gid="0"/>
   <tile gid="0"/>
   <tile gid="0"/>
   <tile gid="0"/>
   <tile gid="0"/>
   <tile gid="0"/>
   <tile gid="0"/>
   <tile gid="0"/>
   <tile gid="0"/>
   <tile gid="0"/>
   <tile gid="0"/>
   <tile gid="0"/>
   <tile gid="0"/>
   <tile gid="0"/>
   <tile gid="0"/>
   <tile gid="0"/>
   <tile gid="0"/>
   <tile gid="0"/>
   <tile gid="0"/>
   <tile gid="0"/>
   <tile gid="0"/>
   <tile gid="0"/>
   <tile gid="0"/>
   <tile gid="0"/>
   <tile gid="0"/>
   <tile gid="0"/>
   <tile gid="0"/>
   <tile gid="0"/>
   <tile gid="0"/>
   <tile gid="0"/>
   <tile gid="0"/>
   <tile gid="0"/>
   <tile gid="0"/>
   <tile gid="0"/>
   <tile gid="0"/>
   <tile gid="0"/>
   <tile gid="0"/>
   <tile gid="0"/>
   <tile gid="0"/>
   <tile gid="0"/>
   <tile gid="0"/>
   <tile gid="0"/>
   <tile gid="0"/>
   <tile gid="0"/>
   <tile gid="0"/>
   <tile gid="0"/>
   <tile gid="0"/>
   <tile gid="0"/>
   <tile gid="0"/>
   <tile gid="0"/>
   <tile gid="0"/>
   <tile gid="0"/>
   <tile gid="0"/>
   <tile gid="0"/>
   <tile gid="0"/>
   <tile gid="0"/>
   <tile gid="0"/>
   <tile gid="0"/>
   <tile gid="0"/>
   <tile gid="0"/>
   <tile gid="0"/>
   <tile gid="0"/>
   <tile gid="0"/>
   <tile gid="0"/>
   <tile gid="0"/>
   <tile gid="0"/>
   <tile gid="0"/>
   <tile gid="0"/>
   <tile gid="0"/>
   <tile gid="0"/>
   <tile gid="0"/>
   <tile gid="0"/>
   <tile gid="0"/>
   <tile gid="0"/>
   <tile gid="0"/>
   <tile gid="0"/>
   <tile gid="0"/>
   <tile gid="0"/>
   <tile gid="0"/>
   <tile gid="0"/>
   <tile gid="0"/>
   <tile gid="0"/>
   <tile gid="0"/>
   <tile gid="0"/>
   <tile gid="0"/>
   <tile gid="0"/>
   <tile gid="0"/>
   <tile gid="0"/>
   <tile gid="0"/>
   <tile gid="0"/>
   <tile gid="0"/>
   <tile gid="0"/>
   <tile gid="0"/>
   <tile gid="0"/>
   <tile gid="0"/>
   <tile gid="0"/>
   <tile gid="0"/>
   <tile gid="0"/>
   <tile gid="0"/>
   <tile gid="0"/>
   <tile gid="0"/>
   <tile gid="0"/>
   <tile gid="0"/>
   <tile gid="0"/>
   <tile gid="0"/>
   <tile gid="0"/>
   <tile gid="0"/>
   <tile gid="0"/>
   <tile gid="0"/>
   <tile gid="0"/>
   <tile gid="0"/>
   <tile gid="0"/>
   <tile gid="0"/>
   <tile gid="0"/>
   <tile gid="0"/>
   <tile gid="0"/>
   <tile gid="0"/>
   <tile gid="0"/>
   <tile gid="0"/>
   <tile gid="0"/>
   <tile gid="0"/>
   <tile gid="0"/>
   <tile gid="0"/>
   <tile gid="0"/>
   <tile gid="0"/>
   <tile gid="0"/>
   <tile gid="0"/>
   <tile gid="0"/>
   <tile gid="0"/>
   <tile gid="0"/>
   <tile gid="0"/>
   <tile gid="0"/>
   <tile gid="0"/>
   <tile gid="0"/>
   <tile gid="0"/>
   <tile gid="0"/>
   <tile gid="0"/>
   <tile gid="0"/>
   <tile gid="0"/>
   <tile gid="0"/>
   <tile gid="0"/>
   <tile gid="0"/>
   <tile gid="0"/>
   <tile gid="0"/>
   <tile gid="0"/>
   <tile gid="0"/>
   <tile gid="0"/>
   <tile gid="0"/>
   <tile gid="0"/>
   <tile gid="0"/>
   <tile gid="0"/>
   <tile gid="0"/>
   <tile gid="0"/>
   <tile gid="0"/>
   <tile gid="0"/>
   <tile gid="0"/>
   <tile gid="0"/>
   <tile gid="0"/>
   <tile gid="0"/>
   <tile gid="0"/>
   <tile gid="0"/>
   <tile gid="0"/>
   <tile gid="0"/>
   <tile gid="0"/>
   <tile gid="0"/>
   <tile gid="0"/>
   <tile gid="0"/>
   <tile gid="0"/>
   <tile gid="0"/>
   <tile gid="0"/>
   <tile gid="0"/>
   <tile gid="0"/>
   <tile gid="0"/>
   <tile gid="0"/>
   <tile gid="0"/>
   <tile gid="0"/>
   <tile gid="0"/>
   <tile gid="0"/>
   <tile gid="0"/>
   <tile gid="0"/>
   <tile gid="0"/>
   <tile gid="0"/>
   <tile gid="0"/>
   <tile gid="0"/>
   <tile gid="0"/>
   <tile gid="0"/>
   <tile gid="0"/>
   <tile gid="0"/>
   <tile gid="0"/>
   <tile gid="0"/>
   <tile gid="0"/>
   <tile gid="0"/>
   <tile gid="0"/>
   <tile gid="0"/>
   <tile gid="0"/>
   <tile gid="0"/>
   <tile gid="0"/>
   <tile gid="0"/>
   <tile gid="0"/>
   <tile gid="0"/>
   <tile gid="0"/>
   <tile gid="0"/>
   <tile gid="0"/>
   <tile gid="0"/>
   <tile gid="0"/>
   <tile gid="0"/>
   <tile gid="0"/>
   <tile gid="0"/>
   <tile gid="0"/>
   <tile gid="0"/>
   <tile gid="0"/>
   <tile gid="0"/>
   <tile gid="0"/>
   <tile gid="0"/>
   <tile gid="0"/>
   <tile gid="0"/>
   <tile gid="0"/>
   <tile gid="0"/>
   <tile gid="0"/>
   <tile gid="0"/>
   <tile gid="0"/>
   <tile gid="0"/>
   <tile gid="0"/>
   <tile gid="0"/>
   <tile gid="0"/>
   <tile gid="0"/>
   <tile gid="0"/>
   <tile gid="0"/>
   <tile gid="0"/>
   <tile gid="0"/>
   <tile gid="0"/>
   <tile gid="0"/>
   <tile gid="0"/>
   <tile gid="0"/>
   <tile gid="0"/>
   <tile gid="0"/>
   <tile gid="0"/>
   <tile gid="0"/>
   <tile gid="0"/>
   <tile gid="0"/>
   <tile gid="0"/>
   <tile gid="0"/>
   <tile gid="0"/>
   <tile gid="0"/>
   <tile gid="0"/>
   <tile gid="0"/>
   <tile gid="0"/>
   <tile gid="0"/>
   <tile gid="0"/>
   <tile gid="0"/>
   <tile gid="0"/>
   <tile gid="0"/>
   <tile gid="0"/>
   <tile gid="0"/>
   <tile gid="0"/>
   <tile gid="0"/>
   <tile gid="0"/>
   <tile gid="0"/>
   <tile gid="0"/>
   <tile gid="0"/>
   <tile gid="0"/>
   <tile gid="0"/>
   <tile gid="0"/>
   <tile gid="0"/>
   <tile gid="0"/>
   <tile gid="0"/>
   <tile gid="0"/>
   <tile gid="0"/>
   <tile gid="0"/>
   <tile gid="0"/>
   <tile gid="0"/>
   <tile gid="0"/>
   <tile gid="0"/>
   <tile gid="0"/>
   <tile gid="0"/>
   <tile gid="0"/>
   <tile gid="0"/>
   <tile gid="0"/>
   <tile gid="0"/>
   <tile gid="0"/>
   <tile gid="0"/>
   <tile gid="0"/>
   <tile gid="0"/>
   <tile gid="0"/>
   <tile gid="0"/>
   <tile gid="0"/>
   <tile gid="0"/>
   <tile gid="0"/>
   <tile gid="0"/>
   <tile gid="0"/>
   <tile gid="0"/>
   <tile gid="0"/>
   <tile gid="0"/>
   <tile gid="0"/>
   <tile gid="0"/>
   <tile gid="0"/>
   <tile gid="0"/>
   <tile gid="0"/>
   <tile gid="0"/>
   <tile gid="0"/>
   <tile gid="0"/>
   <tile gid="0"/>
   <tile gid="0"/>
   <tile gid="0"/>
   <tile gid="0"/>
   <tile gid="0"/>
   <tile gid="0"/>
   <tile gid="0"/>
   <tile gid="0"/>
   <tile gid="0"/>
   <tile gid="0"/>
   <tile gid="0"/>
   <tile gid="0"/>
   <tile gid="0"/>
   <tile gid="0"/>
   <tile gid="0"/>
   <tile gid="0"/>
   <tile gid="0"/>
   <tile gid="0"/>
   <tile gid="0"/>
   <tile gid="0"/>
   <tile gid="0"/>
   <tile gid="0"/>
   <tile gid="0"/>
   <tile gid="0"/>
   <tile gid="0"/>
   <tile gid="0"/>
   <tile gid="0"/>
   <tile gid="0"/>
   <tile gid="0"/>
   <tile gid="0"/>
   <tile gid="0"/>
   <tile gid="0"/>
   <tile gid="0"/>
   <tile gid="0"/>
   <tile gid="0"/>
   <tile gid="0"/>
   <tile gid="0"/>
   <tile gid="0"/>
   <tile gid="0"/>
   <tile gid="0"/>
   <tile gid="0"/>
   <tile gid="0"/>
   <tile gid="0"/>
   <tile gid="0"/>
   <tile gid="0"/>
   <tile gid="0"/>
   <tile gid="0"/>
   <tile gid="0"/>
   <tile gid="0"/>
   <tile gid="0"/>
   <tile gid="0"/>
   <tile gid="0"/>
   <tile gid="0"/>
   <tile gid="0"/>
   <tile gid="0"/>
   <tile gid="0"/>
   <tile gid="0"/>
   <tile gid="0"/>
   <tile gid="0"/>
   <tile gid="0"/>
   <tile gid="0"/>
   <tile gid="0"/>
   <tile gid="0"/>
   <tile gid="0"/>
   <tile gid="0"/>
   <tile gid="0"/>
   <tile gid="0"/>
   <tile gid="0"/>
   <tile gid="0"/>
   <tile gid="0"/>
   <tile gid="0"/>
   <tile gid="0"/>
   <tile gid="0"/>
   <tile gid="0"/>
   <tile gid="0"/>
   <tile gid="0"/>
   <tile gid="0"/>
   <tile gid="0"/>
   <tile gid="0"/>
   <tile gid="0"/>
   <tile gid="0"/>
   <tile gid="0"/>
   <tile gid="0"/>
   <tile gid="0"/>
   <tile gid="0"/>
   <tile gid="0"/>
   <tile gid="0"/>
   <tile gid="0"/>
   <tile gid="0"/>
   <tile gid="0"/>
   <tile gid="0"/>
   <tile gid="0"/>
   <tile gid="0"/>
   <tile gid="0"/>
   <tile gid="0"/>
   <tile gid="0"/>
   <tile gid="0"/>
   <tile gid="0"/>
   <tile gid="0"/>
   <tile gid="0"/>
   <tile gid="0"/>
   <tile gid="0"/>
   <tile gid="0"/>
   <tile gid="0"/>
   <tile gid="0"/>
   <tile gid="0"/>
   <tile gid="0"/>
   <tile gid="0"/>
   <tile gid="0"/>
   <tile gid="0"/>
   <tile gid="0"/>
   <tile gid="0"/>
   <tile gid="0"/>
   <tile gid="0"/>
   <tile gid="0"/>
   <tile gid="0"/>
   <tile gid="0"/>
   <tile gid="0"/>
   <tile gid="0"/>
   <tile gid="0"/>
   <tile gid="0"/>
   <tile gid="0"/>
   <tile gid="0"/>
   <tile gid="0"/>
   <tile gid="0"/>
   <tile gid="0"/>
   <tile gid="0"/>
   <tile gid="0"/>
   <tile gid="0"/>
   <tile gid="0"/>
   <tile gid="0"/>
   <tile gid="0"/>
   <tile gid="0"/>
   <tile gid="0"/>
   <tile gid="0"/>
   <tile gid="0"/>
   <tile gid="0"/>
   <tile gid="0"/>
   <tile gid="0"/>
   <tile gid="0"/>
   <tile gid="0"/>
   <tile gid="0"/>
   <tile gid="0"/>
   <tile gid="0"/>
   <tile gid="0"/>
   <tile gid="0"/>
   <tile gid="0"/>
   <tile gid="0"/>
   <tile gid="0"/>
   <tile gid="0"/>
   <tile gid="0"/>
   <tile gid="0"/>
   <tile gid="0"/>
   <tile gid="0"/>
   <tile gid="0"/>
   <tile gid="0"/>
   <tile gid="0"/>
   <tile gid="0"/>
   <tile gid="0"/>
   <tile gid="0"/>
   <tile gid="0"/>
   <tile gid="0"/>
   <tile gid="0"/>
   <tile gid="0"/>
   <tile gid="0"/>
   <tile gid="0"/>
   <tile gid="0"/>
   <tile gid="0"/>
   <tile gid="0"/>
   <tile gid="0"/>
   <tile gid="0"/>
   <tile gid="0"/>
   <tile gid="0"/>
   <tile gid="0"/>
   <tile gid="0"/>
   <tile gid="0"/>
   <tile gid="0"/>
   <tile gid="0"/>
   <tile gid="0"/>
   <tile gid="0"/>
   <tile gid="0"/>
   <tile gid="0"/>
   <tile gid="0"/>
   <tile gid="0"/>
   <tile gid="0"/>
   <tile gid="0"/>
   <tile gid="0"/>
   <tile gid="0"/>
   <tile gid="0"/>
   <tile gid="0"/>
   <tile gid="0"/>
   <tile gid="0"/>
   <tile gid="0"/>
   <tile gid="0"/>
   <tile gid="0"/>
   <tile gid="0"/>
   <tile gid="0"/>
   <tile gid="0"/>
   <tile gid="0"/>
   <tile gid="0"/>
   <tile gid="0"/>
   <tile gid="0"/>
   <tile gid="0"/>
   <tile gid="0"/>
   <tile gid="0"/>
   <tile gid="0"/>
   <tile gid="0"/>
   <tile gid="0"/>
   <tile gid="0"/>
   <tile gid="0"/>
   <tile gid="0"/>
   <tile gid="0"/>
   <tile gid="0"/>
   <tile gid="0"/>
   <tile gid="0"/>
   <tile gid="0"/>
   <tile gid="0"/>
   <tile gid="0"/>
   <tile gid="0"/>
   <tile gid="0"/>
   <tile gid="0"/>
   <tile gid="0"/>
   <tile gid="0"/>
   <tile gid="0"/>
   <tile gid="0"/>
   <tile gid="0"/>
   <tile gid="0"/>
   <tile gid="0"/>
   <tile gid="0"/>
   <tile gid="0"/>
   <tile gid="0"/>
   <tile gid="0"/>
   <tile gid="0"/>
   <tile gid="0"/>
   <tile gid="0"/>
   <tile gid="0"/>
   <tile gid="0"/>
   <tile gid="0"/>
  </data>
 </layer>
</map>
