<?xml version="1.0" encoding="UTF-8"?>
<map version="1.0" orientation="orthogonal" width="64" height="22" tilewidth="70" tileheight="70" backgroundcolor="#3c4556">
 <tileset firstgid="1" name="map_tiles_70" tilewidth="70" tileheight="70">
  <image source="map_tiles_70.png" width="560" height="140"/>
  <tile id="0"/>
  <tile id="1"/>
  <tile id="2"/>
  <tile id="3"/>
 </tileset>
 <objectgroup color="#ffff00" name="items" width="64" height="22">
  <object name="gun" type="items" x="805" y="595" width="70" height="70"
>
   <properties>
    <property name="bullets" value="5"/>
   </properties>
  </object>
  <object name="health" type="items" x="1575" y="245" width="70" height="70"
/>
  <object name="gun" type="items" x="2065" y="805" width="70" height="70"
>
   <properties>
    <property name="bullets" value="5"/>
   </properties>
  </object>
  <object name="health" type="items" x="2345" y="805" width="70" height="70"
/>
  <object name="gun" type="items" x="3045" y="1015" width="70" height="70"
>
   <properties>
    <property name="bullets" value="6"/>
   </properties>
  </object>
  <object name="key" type="items" x="3325" y="1015" width="70" height="70"
/>
  <object name="health" type="items" x="3955" y="665" width="70" height="70"
/>
  <object name="gun" type="items" x="4305" y="665" width="70" height="70"
>
   <properties>
    <property name="bullets" value="3"/>
   </properties>
  </object>
  <object name="exit_sign" type="items" x="4235" y="1015" width="70" height="70"
/>
  <object name="door" type="items" x="4305" y="1015" width="70" height="70"
/>
 </objectgroup>
 <objectgroup color="#00aa00" name="player" width="64" height="22">
  <object name="player" type="player" x="210" y="560" width="70" height="140"
/>
 </objectgroup>
 <objectgroup color="#ff0000" name="enemies" width="64" height="22">
  <object name="zombie" type="enemy" x="1715" y="210" width="70" height="140"
>
   <properties>
    <property name="archetype" value="walker"/>
   </properties>
  </object>
  <object name="zombie" type="enemy" x="1925" y="770" width="70" height="140"
>
   <properties>
    <property name="archetype" value="walker"/>
    <property name="startLeft" value="true"/>
   </properties>
  </object>
  <object name="zombie" type="enemy" x="2135" y="770" width="70" height="140"
>
   <properties>
    <property name="archetype" value="walker"/>
   </properties>
  </object>
  <object name="zombie" type="enemy" x="2345" y="770" width="70" height="140"
>
   <properties>
    <property name="archetype" value="walker"/>
    <property name="startLeft" value="true"/>
   </properties>
  </object>
  <object name="zombie" type="enemy" x="2485" y="770" width="70" height="140"
>
   <properties>
    <property name="archetype" value="runner"/>
   </properties>
  </object>
  <object name="zombie" type="enemy" x="2695" y="980" width="70" height="140"
>
   <properties>
    <property name="archetype" value="brute"/>
    <property name="startLeft" value="true"/>
   </properties>
  </object>
  <object name="zombie" type="enemy" x="2975" y="980" width="70" height="140"
>
   <properties>
    <property name="archetype" value="walker"/>
   </properties>
  </object>
  <object name="zombie" type="enemy" x="3255" y="980" width="70" height="140"
>
   <properties>
    <property name="archetype" value="runner"/>
    <property name="startLeft" value="true"/>
   </properties>
  </object>
  <object name="zombie" type="enemy" x="3395" y="980" width="70" height="140"
>
   <properties>
    <property name="archetype" value="walker"/>
   </properties>
  </object>
  <object name="zombie" type="enemy" x="2765" y="560" width="70" height="140"
>
   <properties>
    <property name="archetype" value="walker"/>
   </properties>
  </object>
  <object name="zombie" type="enemy" x="3325" y="560" width="70" height="140"
>
   <properties>
    <property name="archetype" value="walker"/>
    <property name="startLeft" value="true"/>
   </properties>
  </object>
  <object name="zombie" type="enemy" x="3465" y="560" width="70" height="140"
>
   <properties>
    <property name="archetype" value="spitter"/>
   </properties>
  </object>
  <object name="zombie" type="enemy" x="3885" y="980" width="70" height="140"
>
   <properties>
    <property name="archetype" value="runner"/>
   </properties>
  </object>
  <object name="zombie" type="enemy" x="4165" y="980" width="70" height="140"
>
   <properties>
    <property name="archetype" value="walker"/>
   </properties>
  </object>
 </objectgroup>
 <layer name="collision" width="64" height="22">
  <data>
   <tile gid="0"/>
   <tile gid="0"/>
   <tile gid="0"/>
   <tile gid="0"/>
   <tile gid="0"/>
   <tile gid="0"/>
   <tile gid="0"/>
   <tile gid="0"/>
   <tile gid="0"/>
   <tile gid="0"/>
   <tile gid="0"/>
   <tile gid="0"/>
   <tile gid="0"/>
   <tile gid="0"/>
   <tile gid="0"/>
   <tile gid="0"/>
   <tile gid="0"/>
   <tile gid="0"/>
   <tile gid="0"/>
   <tile gid="0"/>
   <tile gid="0"/>
   <tile gid="0"/>
   <tile gid="0"/>
   <tile gid="0"/>
   <tile gid="0"/>
   <tile gid="0"/>
   <tile gid="0"/>
   <tile gid="0"/>
   <tile gid="0"/>
   <tile gid="0"/>
   <tile gid="0"/>
   <tile gid="0"/>
   <tile gid="0"/>
   <tile gid="0"/>
   <tile gid="0"/>
   <tile gid="0"/>
   <tile gid="0"/>
   <tile gid="0"/>
   <tile gid="0"/>
   <tile gid="0"/>
   <tile gid="0"/>
   <tile gid="0"/>
   <tile gid="0"/>
   <tile gid="0"/>
   <tile gid="0"/>
   <tile gid="0"/>
   <tile gid="0"/>
   <tile gid="0"/>
   <tile gid="0"/>
   <tile gid="0"/>
   <tile gid="0"/>
   <tile gid="0"/>
   <tile gid="0"/>
   <tile gid="0"/>
   <tile gid="0"/>
   <tile gid="0"/>
   <tile gid="0"/>
   <tile gid="0"/>
   <tile gid="0"/>
   <tile gid="0"/>
   <tile gid="0"/>
   <tile gid="0"/>
   <tile gid="0"/>
   <tile gid="0"/>
   <tile gid="0"/>
   <tile gid="0"/>
   <tile gid="0"/>
   <tile gid="0"/>
   <tile gid="0"/>
   <tile gid="0"/>
   <tile gid="0"/>
   <tile gid="0"/>
   <tile gid="0"/>
   <tile gid="0"/>
   <tile gid="0"/>
   <tile gid="0"/>
   <tile gid="0"/>
   <tile gid="0"/>
   <tile gid="0"/>
   <tile gid="0"/>
   <tile gid="0"/>
   <tile gid="0"/>
   <tile gid="0"/>
   <tile gid="0"/>
   <tile gid="0"/>
   <tile gid="0"/>
   <tile gid="0"/>
   <tile gid="0"/>
   <tile gid="0"/>
   <tile gid="0"/>
   <tile gid="0"/>
   <tile gid="0"/>
   <tile gid="0"/>
   <tile gid="0"/>
   <tile gid="0"/>
   <tile gid="0"/>
   <tile gid="0"/>
   <tile gid="0"/>
   <tile gid="0"/>
   <tile gid="0"/>
   <tile gid="0"/>
   <tile gid="0"/>
   <tile gid="0"/>
   <tile gid="0"/>
   <tile gid="0"/>
   <tile gid="0"/>
   <tile gid="0"/>
   <tile gid="0"/>
   <tile gid="0"/>
   <tile gid="0"/>
   <tile gid="0"/>
   <tile gid="0"/>
   <tile gid="0"/>
   <tile gid="0"/>
   <tile gid="0"/>
   <tile gid="0"/>
   <tile gid="0"/>
   <tile gid="0"/>
   <tile gid="0"/>
   <tile gid="0"/>
   <tile gid="0"/>
   <tile gid="0"/>
   <tile gid="0"/>
   <tile gid="0"/>
   <tile gid="0"/>
   <tile gid="0"/>
   <tile gid="0"/>
   <tile gid="0"/>
   <tile gid="0"/>
   <tile gid="0"/>
   <tile gid="0"/>
   <tile gid="0"/>
   <tile gid="0"/>
   <tile gid="0"/>
   <tile gid="0"/>
   <tile gid="0"/>
   <tile gid="0"/>
   <tile gid="0"/>
   <tile gid="0"/>
   <tile gid="0"/>
   <tile gid="0"/>
   <tile gid="0"/>
   <tile gid="0"/>
   <tile gid="0"/>
   <tile gid="0"/>
   <tile gid="0"/>
   <tile gid="0"/>
   <tile gid="0"/>
   <tile gid="0"/>
   <tile gid="0"/>
   <tile gid="0"/>
   <tile gid="0"/>
   <tile gid="0"/>
   <tile gid="0"/>
   <tile gid="0"/>
   <tile gid="0"/>
   <tile gid="0"/>
   <tile gid="0"/>
   <tile gid="0"/>
   <tile gid="0"/>
   <tile gid="0"/>
   <tile gid="0"/>
   <tile gid="0"/>
   <tile gid="0"/>
   <tile gid="0"/>
   <tile gid="0"/>
   <tile gid="0"/>
   <tile gid="0"/>
   <tile gid="0"/>
   <tile gid="0"/>
   <tile gid="0"/>
   <tile gid="0"/>
   <tile gid="0"/>
   <tile gid="0"/>
   <tile gid="0"/>
   <tile gid="0"/>
   <tile gid="0"/>
   <tile gid="0"/>
   <tile gid="0"/>
   <tile gid="0"/>
   <tile gid="0"/>
   <tile gid="0"/>
   <tile gid="0"/>
   <tile gid="0"/>
   <tile gid="0"/>
   <tile gid="0"/>
   <tile gid="0"/>
   <tile gid="0"/>
   <tile gid="0"/>
   <tile gid="0"/>
   <tile gid="0"/>
   <tile gid="0"/>
   <tile gid="0"/>
   <tile gid="0"/>
   <tile gid="0"/>
   <tile gid="0"/>
   <tile gid="0"/>
   <tile gid="0"/>
   <tile gid="0"/>
   <tile gid="0"/>
   <tile gid="0"/>
   <tile gid="0"/>
   <tile gid="0"/>
   <tile gid="0"/>
   <tile gid="0"/>
   <tile gid="0"/>
   <tile gid="0"/>
   <tile gid="0"/>
   <tile gid="0"/>
   <tile gid="0"/>
   <tile gid="0"/>
   <tile gid="0"/>
   <tile gid="0"/>
   <tile gid="0"/>
   <tile gid="0"/>
   <tile gid="0"/>
   <tile gid="0"/>
   <tile gid="0"/>
   <tile gid="0"/>
   <tile gid="0"/>
   <tile gid="0"/>
   <tile gid="0"/>
   <tile gid="0"/>
   <tile gid="0"/>
   <tile gid="0"/>
   <tile gid="0"/>
   <tile gid="0"/>
   <tile gid="0"/>
   <tile gid="0"/>
   <tile gid="0"/>
   <tile gid="0"/>
   <tile gid="0"/>
   <tile gid="0"/>
   <tile gid="0"/>
   <tile gid="0"/>
   <tile gid="0"/>
   <tile gid="0"/>
   <tile gid="0"/>
   <tile gid="0"/>
   <tile gid="0"/>
   <tile gid="0"/>
   <tile gid="0"/>
   <tile gid="0"/>
   <tile gid="0"/>
   <tile gid="0"/>
   <tile gid="0"/>
   <tile gid="0"/>
   <tile gid="0"/>
   <tile gid="0"/>
   <tile gid="0"/>
   <tile gid="0"/>
   <tile gid="0"/>
   <tile gid="0"/>
   <tile gid="0"/>
   <tile gid="0"/>
   <tile gid="0"/>
   <tile gid="0"/>
   <tile gid="0"/>
   <tile gid="0"/>
   <tile gid="0"/>
   <tile gid="0"/>
   <tile gid="0"/>
   <tile gid="0"/>
   <tile gid="0"/>
   <tile gid="0"/>
   <tile gid="0"/>
   <tile gid="0"/>
   <tile gid="0"/>
   <tile gid="0"/>
   <tile gid="0"/>
   <tile gid="0"/>
   <tile gid="0"/>
   <tile gid="0"/>
   <tile gid="0"/>
   <tile gid="0"/>
   <tile gid="0"/>
   <tile gid="0"/>
   <tile gid="0"/>
   <tile gid="0"/>
   <tile gid="0"/>
   <tile gid="0"/>
   <tile gid="0"/>
   <tile gid="0"/>
   <tile gid="0"/>
   <tile gid="0"/>
   <tile gid="0"/>
   <tile gid="0"/>
   <tile gid="0"/>
   <tile gid="0"/>
   <tile gid="0"/>
   <tile gid="0"/>
   <tile gid="0"/>
   <tile gid="0"/>
   <tile gid="0"/>
   <tile gid="0"/>
   <tile gid="0"/>
   <tile gid="0"/>
   <tile gid="0"/>
   <tile gid="0"/>
   <tile gid="0"/>
   <tile gid="0"/>
   <tile gid="0"/>
   <tile gid="0"/>
   <tile gid="0"/>
   <tile gid="0"/>
   <tile gid="0"/>
   <tile gid="0"/>
   <tile gid="0"/>
   <tile gid="0"/>
   <tile gid="0"/>
   <tile gid="0"/>
   <tile gid="0"/>
   <tile gid="0"/>
   <tile gid="0"/>
   <tile gid="0"/>
   <tile gid="0"/>
   <tile gid="0"/>
   <tile gid="0"/>
   <tile gid="0"/>
   <tile gid="0"/>
   <tile gid="0"/>
   <tile gid="0"/>
   <tile gid="0"/>
   <tile gid="0"/>
   <tile gid="0"/>
   <tile gid="0"/>
   <tile gid="0"/>
   <tile gid="0"/>
   <tile gid="0"/>
   <tile gid="0"/>
   <tile gid="0"/>
   <tile gid="0"/>
   <tile gid="0"/>
   <tile gid="0"/>
   <tile gid="0"/>
   <tile gid="0"/>
   <tile gid="0"/>
   <tile gid="0"/>
   <tile gid="0"/>
   <tile gid="0"/>
   <tile gid="0"/>
   <tile gid="0"/>
   <tile gid="1"/>
   <tile gid="2"/>
   <tile gid="2"/>
   <tile gid="2"/>
   <tile gid="3"/>
   <tile gid="0"/>
   <tile gid="0"/>
   <tile gid="0"/>
   <tile gid="0"/>
   <tile gid="0"/>
   <tile gid="0"/>
   <tile gid="0"/>
   <tile gid="0"/>
   <tile gid="0"/>
   <tile gid="0"/>
   <tile gid="0"/>
   <tile gid="0"/>
   <tile gid="0"/>
   <tile gid="0"/>
   <tile gid="0"/>
   <tile gid="0"/>
   <tile gid="0"/>
   <tile gid="0"/>
   <tile gid="0"/>
   <tile gid="0"/>
   <tile gid="0"/>
   <tile gid="0"/>
   <tile gid="0"/>
   <tile gid="0"/>
   <tile gid="0"/>
   <tile gid="0"/>
   <tile gid="0"/>
   <tile gid="0"/>
   <tile gid="0"/>
   <tile gid="0"/>
   <tile gid="0"/>
   <tile gid="0"/>
   <tile gid="0"/>
   <tile gid="0"/>
   <tile gid="0"/>
   <tile gid="0"/>
   <tile gid="0"/>
   <tile gid="0"/>
   <tile gid="0"/>
   <tile gid="0"/>
   <tile gid="0"/>
   <tile gid="0"/>
   <tile gid="0"/>
   <tile gid="0"/>
   <tile gid="0"/>
   <tile gid="0"/>
   <tile gid="0"/>
   <tile gid="0"/>
   <tile gid="0"/>
   <tile gid="0"/>
   <tile gid="0"/>
   <tile gid="0"/>
   <tile gid="0"/>
   <tile gid="0"/>
   <tile gid="0"/>
   <tile gid="0"/>
   <tile gid="0"/>
   <tile gid="0"/>
   <tile gid="0"/>
   <tile gid="0"/>
   <tile gid="0"/>
   <tile gid="0"/>
   <tile gid="0"/>
   <tile gid="0"/>
   <tile gid="0"/>
   <tile gid="0"/>
   <tile gid="0"/>
   <tile gid="0"/>
   <tile gid="0"/>
   <tile gid="0"/>
   <tile gid="0"/>
   <tile gid="0"/>
   <tile gid="0"/>
   <tile gid="0"/>
   <tile gid="0"/>
   <tile gid="0"/>
   <tile gid="0"/>
   <tile gid="0"/>
   <tile gid="0"/>
   <tile gid="0"/>
   <tile gid="0"/>
   <tile gid="0"/>
   <tile gid="0"/>
   <tile gid="0"/>
   <tile gid="0"/>
   <tile gid="0"/>
   <tile gid="0"/>
   <tile gid="0"/>
   <tile gid="0"/>
   <tile gid="0"/>
   <tile gid="0"/>
   <tile gid="0"/>
   <tile gid="0"/>
   <tile gid="0"/>
   <tile gid="0"/>
   <tile gid="0"/>
   <tile gid="0"/>
   <tile gid="0"/>
   <tile gid="0"/>
   <tile gid="0"/>
   <tile gid="0"/>
   <tile gid="0"/>
   <tile gid="0"/>
   <tile gid="0"/>
   <tile gid="0"/>
   <tile gid="0"/>
   <tile gid="0"/>
   <tile gid="0"/>
   <tile gid="0"/>
   <tile gid="0"/>
   <tile gid="0"/>
   <tile gid="0"/>
   <tile gid="0"/>
   <tile gid="0"/>
   <tile gid="0"/>
   <tile gid="0"/>
   <tile gid="0"/>
   <tile gid="0"/>
   <tile gid="0"/>
   <tile gid="0"/>
   <tile gid="0"/>
   <tile gid="0"/>
   <tile gid="0"/>
   <tile gid="0"/>
   <tile gid="0"/>
   <tile gid="0"/>
   <tile gid="0"/>
   <tile gid="0"/>
   <tile gid="0"/>
   <tile gid="0"/>
   <tile gid="0"/>
   <tile gid="0"/>
   <tile gid="0"/>
   <tile gid="0"/>
   <tile gid="0"/>
   <tile gid="0"/>
   <tile gid="0"/>
   <tile gid="0"/>
   <tile gid="0"/>
   <tile gid="0"/>
   <tile gid="0"/>
   <tile gid="0"/>
   <tile gid="0"/>
   <tile gid="0"/>
   <tile gid="0"/>
   <tile gid="0"/>
   <tile gid="0"/>
   <tile gid="0"/>
   <tile gid="0"/>
   <tile gid="0"/>
   <tile gid="0"/>
   <tile gid="0"/>
   <tile gid="0"/>
   <tile gid="0"/>
   <tile gid="0"/>
   <tile gid="0"/>
   <tile gid="0"/>
   <tile gid="0"/>
   <tile gid="0"/>
   <tile gid="0"/>
   <tile gid="0"/>
   <tile gid="0"/>
   <tile gid="0"/>
   <tile gid="0"/>
   <tile gid="0"/>
   <tile gid="0"/>
   <tile gid="0"/>
   <tile gid="0"/>
   <tile gid="0"/>
   <tile gid="0"/>
   <tile gid="0"/>
   <tile gid="0"/>
   <tile gid="0"/>
   <tile gid="0"/>
   <tile gid="0"/>
   <tile gid="0"/>
   <tile gid="0"/>
   <tile gid="0"/>
   <tile gid="0"/>
   <tile gid="0"/>
   <tile gid="0"/>
   <tile gid="0"/>
   <tile gid="1"/>
   <tile gid="2"/>
   <tile gid="2"/>
   <tile gid="3"/>
   <tile gid="0"/>
   <tile gid="0"/>
   <tile gid="0"/>
   <tile gid="0"/>
   <tile gid="0"/>
   <tile gid="0"/>
   <tile gid="1"/>
   <tile gid="2"/>
   <tile gid="2"/>
   <tile gid="2"/>
   <tile gid="2"/>
   <tile gid="3"/>
   <tile gid="0"/>
   <tile gid="0"/>
   <tile gid="0"/>
   <tile gid="0"/>
   <tile gid="0"/>
   <tile gid="0"/>
   <tile gid="0"/>
   <tile gid="0"/>
   <tile gid="0"/>
   <tile gid="0"/>
   <tile gid="0"/>
   <tile gid="0"/>
   <tile gid="0"/>
   <tile gid="0"/>
   <tile gid="0"/>
   <tile gid="0"/>
   <tile gid="0"/>
   <tile gid="0"/>
   <tile gid="0"/>
   <tile gid="0"/>
   <tile gid="0"/>
   <tile gid="0"/>
   <tile gid="0"/>
   <tile gid="0"/>
   <tile gid="0"/>
   <tile gid="0"/>
   <tile gid="0"/>
   <tile gid="0"/>
   <tile gid="0"/>
   <tile gid="0"/>
   <tile gid="0"/>
   <tile gid="0"/>
   <tile gid="0"/>
   <tile gid="0"/>
   <tile gid="0"/>
   <tile gid="0"/>
   <tile gid="0"/>
   <tile gid="0"/>
   <tile gid="0"/>
   <tile gid="0"/>
   <tile gid="0"/>
   <tile gid="0"/>
   <tile gid="0"/>
   <tile gid="0"/>
   <tile gid="0"/>
   <tile gid="0"/>
   <tile gid="0"/>
   <tile gid="0"/>
   <tile gid="0"/>
   <tile gid="0"/>
   <tile gid="0"/>
   <tile gid="0"/>
   <tile gid="0"/>
   <tile gid="0"/>
   <tile gid="0"/>
   <tile gid="0"/>
   <tile gid="0"/>
   <tile gid="0"/>
   <tile gid="0"/>
   <tile gid="0"/>
   <tile gid="0"/>
   <tile gid="0"/>
   <tile gid="0"/>
   <tile gid="0"/>
   <tile gid="0"/>
   <tile gid="0"/>
   <tile gid="0"/>
   <tile gid="0"/>
   <tile gid="0"/>
   <tile gid="0"/>
   <tile gid="0"/>
   <tile gid="0"/>
   <tile gid="0"/>
   <tile gid="0"/>
   <tile gid="0"/>
   <tile gid="0"/>
   <tile gid="0"/>
   <tile gid="0"/>
   <tile gid="0"/>
   <tile gid="0"/>
   <tile gid="0"/>
   <tile gid="0"/>
   <tile gid="0"/>
   <tile gid="0"/>
   <tile gid="0"/>
   <tile gid="0"/>
   <tile gid="0"/>
   <tile gid="0"/>
   <tile gid="0"/>
   <tile gid="0"/>
   <tile gid="0"/>
   <tile gid="0"/>
   <tile gid="0"/>
   <tile gid="0"/>
   <tile gid="0"/>
   <tile gid="0"/>
   <tile gid="1"/>
   <tile gid="2"/>
   <tile gid="2"/>
   <tile gid="2"/>
   <tile gid="2"/>
   <tile gid="3"/>
   <tile gid="0"/>
   <tile gid="0"/>
   <tile gid="0"/>
   <tile gid="1"/>
   <tile gid="2"/>
   <tile gid="2"/>
   <tile gid="2"/>
   <tile gid="2"/>
   <tile gid="3"/>
   <tile gid="0"/>
   <tile gid="0"/>
   <tile gid="0"/>
   <tile gid="0"/>
   <tile gid="0"/>
   <tile gid="0"/>
   <tile gid="0"/>
   <tile gid="0"/>
   <tile gid="0"/>
   <tile gid="0"/>
   <tile gid="0"/>
   <tile gid="0"/>
   <tile gid="0"/>
   <tile gid="0"/>
   <tile gid="0"/>
   <tile gid="0"/>
   <tile gid="0"/>
   <tile gid="0"/>
   <tile gid="0"/>
   <tile gid="0"/>
   <tile gid="0"/>
   <tile gid="1"/>
   <tile gid="2"/>
   <tile gid="2"/>
   <tile gid="2"/>
   <tile gid="2"/>
   <tile gid="3"/>
   <tile gid="0"/>
   <tile gid="0"/>
   <tile gid="0"/>
   <tile gid="1"/>
   <tile gid="2"/>
   <tile gid="2"/>
   <tile gid="2"/>
   <tile gid="2"/>
   <tile gid="3"/>
   <tile gid="0"/>
   <tile gid="0"/>
   <tile gid="0"/>
   <tile gid="0"/>
   <tile gid="0"/>
   <tile gid="0"/>
   <tile gid="0"/>
   <tile gid="0"/>
   <tile gid="0"/>
   <tile gid="0"/>
   <tile gid="0"/>
   <tile gid="0"/>
   <tile gid="0"/>
   <tile gid="0"/>
   <tile gid="0"/>
   <tile gid="0"/>
   <tile gid="0"/>
   <tile gid="0"/>
   <tile gid="0"/>
   <tile gid="0"/>
   <tile gid="0"/>
   <tile gid="0"/>
   <tile gid="0"/>
   <tile gid="0"/>
   <tile gid="0"/>
   <tile gid="0"/>
   <tile gid="0"/>
   <tile gid="0"/>
   <tile gid="0"/>
   <tile gid="0"/>
   <tile gid="0"/>
   <tile gid="0"/>
   <tile gid="0"/>
   <tile gid="0"/>
   <tile gid="0"/>
   <tile gid="0"/>
   <tile gid="0"/>
   <tile gid="0"/>
   <tile gid="0"/>
   <tile gid="0"/>
   <tile gid="0"/>
   <tile gid="0"/>
   <tile gid="0"/>
   <tile gid="0"/>
   <tile gid="0"/>
   <tile gid="0"/>
   <tile gid="0"/>
   <tile gid="0"/>
   <tile gid="0"/>
   <tile gid="0"/>
   <tile gid="0"/>
   <tile gid="0"/>
   <tile gid="0"/>
   <tile gid="0"/>
   <tile gid="0"/>
   <tile gid="0"/>
   <tile gid="0"/>
   <tile gid="0"/>
   <tile gid="0"/>
   <tile gid="0"/>
   <tile gid="0"/>
   <tile gid="0"/>
   <tile gid="0"/>
   <tile gid="0"/>
   <tile gid="0"/>
   <tile gid="0"/>
   <tile gid="1"/>
   <tile gid="2"/>
   <tile gid="2"/>
   <tile gid="2"/>
   <tile gid="3"/>
   <tile gid="0"/>
   <tile gid="0"/>
   <tile gid="1"/>
   <tile gid="2"/>
   <tile gid="3"/>
   <tile gid="0"/>
   <tile gid="0"/>
   <tile gid="0"/>
   <tile gid="0"/>
   <tile gid="0"/>
   <tile gid="0"/>
   <tile gid="0"/>
   <tile gid="0"/>
   <tile gid="0"/>
   <tile gid="0"/>
   <tile gid="0"/>
   <tile gid="0"/>
   <tile gid="0"/>
   <tile gid="0"/>
   <tile gid="0"/>
   <tile gid="0"/>
   <tile gid="0"/>
   <tile gid="0"/>
   <tile gid="0"/>
   <tile gid="0"/>
   <tile gid="0"/>
   <tile gid="0"/>
   <tile gid="0"/>
   <tile gid="0"/>
   <tile gid="0"/>
   <tile gid="0"/>
   <tile gid="0"/>
   <tile gid="0"/>
   <tile gid="0"/>
   <tile gid="0"/>
   <tile gid="0"/>
   <tile gid="0"/>
   <tile gid="0"/>
   <tile gid="0"/>
   <tile gid="0"/>
   <tile gid="0"/>
   <tile gid="0"/>
   <tile gid="0"/>
   <tile gid="0"/>
   <tile gid="0"/>
   <tile gid="0"/>
   <tile gid="0"/>
   <tile gid="0"/>
   <tile gid="0"/>
   <tile gid="0"/>
   <tile gid="0"/>
   <tile gid="0"/>
   <tile gid="0"/>
   <tile gid="0"/>
   <tile gid="0"/>
   <tile gid="0"/>
   <tile gid="0"/>
   <tile gid="0"/>
   <tile gid="0"/>
   <tile gid="0"/>
   <tile gid="0"/>
   <tile gid="0"/>
   <tile gid="0"/>
   <tile gid="0"/>
   <tile gid="0"/>
   <tile gid="0"/>
   <tile gid="0"/>
   <tile gid="0"/>
   <tile gid="0"/>
   <tile gid="0"/>
   <tile gid="0"/>
   <tile gid="0"/>
   <tile gid="0"/>
   <tile gid="0"/>
   <tile gid="0"/>
   <tile gid="0"/>
   <tile gid="0"/>
   <tile gid="0"/>
   <tile gid="0"/>
   <tile gid="0"/>
   <tile gid="0"/>
   <tile gid="0"/>
   <tile gid="0"/>
   <tile gid="0"/>
   <tile gid="0"/>
   <tile gid="0"/>
   <tile gid="0"/>
   <tile gid="0"/>
   <tile gid="0"/>
   <tile gid="0"/>
   <tile gid="0"/>
   <tile gid="0"/>
   <tile gid="0"/>
   <tile gid="0"/>
   <tile gid="0"/>
   <tile gid="0"/>
   <tile gid="1"/>
   <tile gid="2"/>
   <tile gid="2"/>
   <tile gid="2"/>
   <tile gid="2"/>
   <tile gid="2"/>
   <tile gid="2"/>
   <tile gid="2"/>
   <tile gid="2"/>
   <tile gid="3"/>
   <tile gid="0"/>
   <tile gid="0"/>
   <tile gid="0"/>
   <tile gid="0"/>
   <tile gid="0"/>
   <tile gid="0"/>
   <tile gid="1"/>
   <tile gid="2"/>
   <tile gid="3"/>
   <tile gid="0"/>
   <tile gid="0"/>
   <tile gid="0"/>
   <tile gid="0"/>
   <tile gid="0"/>
   <tile gid="0"/>
   <tile gid="0"/>
   <tile gid="0"/>
   <tile gid="0"/>
   <tile gid="0"/>
   <tile gid="0"/>
   <tile gid="0"/>
   <tile gid="0"/>
   <tile gid="0"/>
   <tile gid="0"/>
   <tile gid="0"/>
   <tile gid="0"/>
   <tile gid="0"/>
   <tile gid="0"/>
   <tile gid="0"/>
   <tile gid="0"/>
   <tile gid="0"/>
   <tile gid="0"/>
   <tile gid="0"/>
   <tile gid="0"/>
   <tile gid="0"/>
   <tile gid="0"/>
   <tile gid="0"/>
   <tile gid="0"/>
   <tile gid="0"/>
   <tile gid="0"/>
   <tile gid="0"/>
   <tile gid="0"/>
   <tile gid="0"/>
   <tile gid="0"/>
   <tile gid="0"/>
   <tile gid="0"/>
   <tile gid="0"/>
   <tile gid="0"/>
   <tile gid="0"/>
   <tile gid="0"/>
   <tile gid="0"/>
   <tile gid="0"/>
   <tile gid="0"/>
   <tile gid="0"/>
   <tile gid="0"/>
   <tile gid="0"/>
   <tile gid="0"/>
   <tile gid="0"/>
   <tile gid="0"/>
   <tile gid="0"/>
   <tile gid="0"/>
   <tile gid="0"/>
   <tile gid="0"/>
   <tile gid="0"/>
   <tile gid="0"/>
   <tile gid="0"/>
   <tile gid="0"/>
   <tile gid="0"/>
   <tile gid="0"/>
   <tile gid="0"/>
   <tile gid="0"/>
   <tile gid="0"/>
   <tile gid="0"/>
   <tile gid="0"/>
   <tile gid="0"/>
   <tile gid="0"/>
   <tile gid="0"/>
   <tile gid="0"/>
   <tile gid="0"/>
   <tile gid="0"/>
   <tile gid="0"/>
   <tile gid="0"/>
   <tile gid="0"/>
   <tile gid="0"/>
   <tile gid="0"/>
   <tile gid="0"/>
   <tile gid="0"/>
   <tile gid="0"/>
   <tile gid="0"/>
   <tile gid="0"/>
   <tile gid="0"/>
   <tile gid="0"/>
   <tile gid="0"/>
   <tile gid="0"/>
   <tile gid="0"/>
   <tile gid="0"/>
   <tile gid="0"/>
   <tile gid="0"/>
   <tile gid="0"/>
   <tile gid="0"/>
   <tile gid="0"/>
   <tile gid="0"/>
   <tile gid="0"/>
   <tile gid="0"/>
   <tile gid="0"/>
   <tile gid="0"/>
   <tile gid="0"/>
   <tile gid="0"/>
   <tile gid="0"/>
   <tile gid="0"/>
   <tile gid="0"/>
   <tile gid="0"/>
   <tile gid="0"/>
   <tile gid="0"/>
   <tile gid="0"/>
   <tile gid="0"/>
   <tile gid="0"/>
   <tile gid="0"/>
   <tile gid="0"/>
   <tile gid="0"/>
   <tile gid="0"/>
   <tile gid="0"/>
   <tile gid="0"/>
   <tile gid="0"/>
   <tile gid="0"/>
   <tile gid="0"/>
   <tile gid="0"/>
   <tile gid="0"/>
   <tile gid="0"/>
   <tile gid="0"/>
   <tile gid="0"/>
   <tile gid="0"/>
   <tile gid="0"/>
   <tile gid="0"/>
   <tile gid="0"/>
   <tile gid="0"/>
   <tile gid="0"/>
   <tile gid="0"/>
   <tile gid="0"/>
   <tile gid="0"/>
   <tile gid="0"/>
   <tile gid="0"/>
   <tile gid="0"/>
   <tile gid="0"/>
   <tile gid="0"/>
   <tile gid="0"/>
   <tile gid="0"/>
   <tile gid="0"/>
   <tile gid="0"/>
   <tile gid="0"/>
   <tile gid="0"/>
   <tile gid="0"/>
   <tile gid="0"/>
   <tile gid="0"/>
   <tile gid="0"/>
   <tile gid="0"/>
   <tile gid="0"/>
   <tile gid="0"/>
   <tile gid="0"/>
   <tile gid="0"/>
   <tile gid="0"/>
   <tile gid="0"/>
   <tile gid="0"/>
   <tile gid="0"/>
   <tile gid="0"/>
   <tile gid="0"/>
   <tile gid="0"/>
   <tile gid="0"/>
   <tile gid="0"/>
   <tile gid="0"/>
   <tile gid="0"/>
   <tile gid="0"/>
   <tile gid="0"/>
   <tile gid="0"/>
   <tile gid="0"/>
   <tile gid="0"/>
   <tile gid="0"/>
   <tile gid="0"/>
   <tile gid="0"/>
   <tile gid="0"/>
   <tile gid="0"/>
   <tile gid="0"/>
   <tile gid="0"/>
   <tile gid="0"/>
   <tile gid="0"/>
   <tile gid="0"/>
   <tile gid="0"/>
   <tile gid="0"/>
   <tile gid="0"/>
   <tile gid="0"/>
   <tile gid="0"/>
   <tile gid="0"/>
   <tile gid="1"/>
   <tile gid="2"/>
   <tile gid="2"/>
   <tile gid="2"/>
   <tile gid="2"/>
   <tile gid="2"/>
   <tile gid="2"/>
   <tile gid="2"/>
   <tile gid="2"/>
   <tile gid="2"/>
   <tile gid="2"/>
   <tile gid="2"/>
   <tile gid="2"/>
   <tile gid="2"/>
   <tile gid="3"/>
   <tile gid="0"/>
   <tile gid="0"/>
   <tile gid="1"/>
   <tile gid="2"/>
   <tile gid="2"/>
   <tile gid="2"/>
   <tile gid="2"/>
   <tile gid="2"/>
   <tile gid="2"/>
   <tile gid="2"/>
   <tile gid="2"/>
   <tile gid="3"/>
   <tile gid="0"/>
   <tile gid="0"/>
   <tile gid="0"/>
   <tile gid="0"/>
   <tile gid="0"/>
   <tile gid="0"/>
   <tile gid="0"/>
   <tile gid="0"/>
   <tile gid="0"/>
   <tile gid="0"/>
   <tile gid="0"/>
   <tile gid="0"/>
   <tile gid="0"/>
   <tile gid="0"/>
   <tile gid="0"/>
   <tile gid="0"/>
   <tile gid="0"/>
   <tile gid="0"/>
   <tile gid="0"/>
   <tile gid="0"/>
   <tile gid="0"/>
   <tile gid="0"/>
   <tile gid="0"/>
   <tile gid="0"/>
   <tile gid="0"/>
   <tile gid="0"/>
   <tile gid="0"/>
   <tile gid="0"/>
   <tile gid="0"/>
   <tile gid="0"/>
   <tile gid="0"/>
   <tile gid="0"/>
   <tile gid="0"/>
   <tile gid="0"/>
   <tile gid="0"/>
   <tile gid="0"/>
   <tile gid="0"/>
   <tile gid="0"/>
   <tile gid="0"/>
   <tile gid="0"/>
   <tile gid="0"/>
   <tile gid="0"/>
   <tile gid="0"/>
   <tile gid="0"/>
   <tile gid="0"/>
   <tile gid="0"/>
   <tile gid="0"/>
   <tile gid="0"/>
   <tile gid="0"/>
   <tile gid="0"/>
   <tile gid="0"/>
   <tile gid="0"/>
   <tile gid="0"/>
   <tile gid="0"/>
   <tile gid="0"/>
   <tile gid="0"/>
   <tile gid="0"/>
   <tile gid="0"/>
   <tile gid="0"/>
   <tile gid="0"/>
   <tile gid="0"/>
   <tile gid="0"/>
   <tile gid="0"/>
   <tile gid="0"/>
   <tile gid="0"/>
   <tile gid="0"/>
   <tile gid="0"/>
   <tile gid="0"/>
   <tile gid="0"/>
   <tile gid="0"/>
   <tile gid="0"/>
   <tile gid="0"/>
   <tile gid="0"/>
   <tile gid="0"/>
   <tile gid="0"/>
   <tile gid="0"/>
   <tile gid="0"/>
   <tile gid="0"/>
   <tile gid="0"/>
   <tile gid="0"/>
   <tile gid="0"/>
   <tile gid="0"/>
   <tile gid="0"/>
   <tile gid="0"/>
   <tile gid="0"/>
   <tile gid="0"/>
   <tile gid="0"/>
   <tile gid="0"/>
   <tile gid="0"/>
   <tile gid="0"/>
   <tile gid="0"/>
   <tile gid="0"/>
   <tile gid="0"/>
   <tile gid="0"/>
   <tile gid="0"/>
   <tile gid="0"/>
   <tile gid="0"/>
   <tile gid="0"/>
   <tile gid="0"/>
   <tile gid="0"/>
   <tile gid="0"/>
   <tile gid="0"/>
   <tile gid="0"/>
   <tile gid="0"/>
   <tile gid="0"/>
   <tile gid="0"/>
   <tile gid="0"/>
   <tile gid="0"/>
   <tile gid="0"/>
   <tile gid="0"/>
   <tile gid="0"/>
   <tile gid="0"/>
   <tile gid="0"/>
   <tile gid="0"/>
   <tile gid="0"/>
   <tile gid="0"/>
   <tile gid="0"/>
   <tile gid="0"/>
   <tile gid="0"/>
   <tile gid="0"/>
   <tile gid="0"/>
   <tile gid="0"/>
   <tile gid="0"/>
   <tile gid="0"/>
   <tile gid="0"/>
   <tile gid="0"/>
   <tile gid="0"/>
   <tile gid="0"/>
   <tile gid="0"/>
   <tile gid="0"/>
   <tile gid="0"/>
   <tile gid="0"/>
   <tile gid="0"/>
   <tile gid="0"/>
   <tile gid="0"/>
   <tile gid="0"/>
   <tile gid="0"/>
   <tile gid="0"/>
   <tile gid="0"/>
   <tile gid="0"/>
   <tile gid="0"/>
   <tile gid="0"/>
   <tile gid="0"/>
   <tile gid="0"/>
   <tile gid="0"/>
   <tile gid="0"/>
   <tile gid="0"/>
   <tile gid="0"/>
   <tile gid="0"/>
   <tile gid="0"/>
   <tile gid="0"/>
   <tile gid="0"/>
   <tile gid="0"/>
   <tile gid="0"/>
   <tile gid="0"/>
   <tile gid="0"/>
   <tile gid="0"/>
   <tile gid="0"/>
   <tile gid="0"/>
   <tile gid="0"/>
   <tile gid="0"/>
   <tile gid="0"/>
   <tile gid="0"/>
   <tile gid="0"/>
   <tile gid="0"/>
   <tile gid="0"/>
   <tile gid="0"/>
   <tile gid="0"/>
   <tile gid="0"/>
   <tile gid="0"/>
   <tile gid="0"/>
   <tile gid="0"/>
   <tile gid="0"/>
   <tile gid="0"/>
   <tile gid="0"/>
   <tile gid="0"/>
   <tile gid="0"/>
   <tile gid="0"/>
   <tile gid="0"/>
   <tile gid="0"/>
   <tile gid="0"/>
   <tile gid="0"/>
   <tile gid="0"/>
   <tile gid="0"/>
   <tile gid="0"/>
   <tile gid="0"/>
   <tile gid="0"/>
   <tile gid="0"/>
   <tile gid="0"/>
   <tile gid="0"/>
   <tile gid="0"/>
   <tile gid="0"/>
   <tile gid="0"/>
   <tile gid="0"/>
   <tile gid="0"/>
   <tile gid="0"/>
   <tile gid="0"/>
   <tile gid="0"/>
   <tile gid="0"/>
   <tile gid="0"/>
   <tile gid="0"/>
   <tile gid="0"/>
   <tile gid="0"/>
   <tile gid="0"/>
   <tile gid="0"/>
   <tile gid="0"/>
   <tile gid="0"/>
   <tile gid="0"/>
   <tile gid="0"/>
   <tile gid="0"/>
   <tile gid="0"/>
   <tile gid="0"/>
   <tile gid="0"/>
   <tile gid="0"/>
   <tile gid="0"/>
   <tile gid="0"/>
   <tile gid="0"/>
   <tile gid="0"/>
   <tile gid="0"/>
   <tile gid="0"/>
   <tile gid="0"/>
   <tile gid="0"/>
   <tile gid="0"/>
   <tile gid="0"/>
   <tile gid="0"/>
   <tile gid="0"/>
   <tile gid="0"/>
   <tile gid="0"/>
   <tile gid="0"/>
   <tile gid="0"/>
   <tile gid="0"/>
   <tile gid="0"/>
   <tile gid="0"/>
   <tile gid="0"/>
   <tile gid="0"/>
   <tile gid="0"/>
   <tile gid="0"/>
   <tile gid="0"/>
   <tile gid="0"/>
   <tile gid="0"/>
   <tile gid="0"/>
   <tile gid="0"/>
   <tile gid="0"/>
   <tile gid="0"/>
   <tile gid="0"/>
   <tile gid="0"/>
   <tile gid="0"/>
   <tile gid="0"/>
   <tile gid="0"/>
   <tile gid="0"/>
   <tile gid="0"/>
   <tile gid="0"/>
   <tile gid="0"/>
   <tile gid="0"/>
   <tile gid="0"/>
   <tile gid="0"/>
   <tile gid="0"/>
   <tile gid="0"/>
   <tile gid="0"/>
   <tile gid="0"/>
   <tile gid="0"/>
   <tile gid="0"/>
   <tile gid="0"/>
   <tile gid="0"/>
   <tile gid="0"/>
   <tile gid="0"/>
   <tile gid="0"/>
   <tile gid="0"/>
   <tile gid="0"/>
   <tile gid="0"/>
   <tile gid="0"/>
   <tile gid="0"/>
   <tile gid="0"/>
   <tile gid="0"/>
   <tile gid="0"/>
   <tile gid="0"/>
   <tile gid="0"/>
   <tile gid="0"/>
   <tile gid="0"/>
   <tile gid="0"/>
   <tile gid="0"/>
   <tile gid="0"/>
   <tile gid="0"/>
   <tile gid="0"/>
   <tile gid="0"/>
   <tile gid="0"/>
   <tile gid="0"/>
   <tile gid="0"/>
   <tile gid="0"/>
   <tile gid="0"/>
   <tile gid="0"/>
   <tile gid="0"/>
   <tile gid="0"/>
   <tile gid="0"/>
   <tile gid="0"/>
   <tile gid="0"/>
   <tile gid="0"/>
   <tile gid="0"/>
   <tile gid="0"/>
   <tile gid="0"/>
   <tile gid="0"/>
   <tile gid="0"/>
   <tile gid="0"/>
   <tile gid="0"/>
   <tile gid="0"/>
   <tile gid="0"/>
   <tile gid="0"/>
   <tile gid="0"/>
   <tile gid="0"/>
   <tile gid="0"/>
   <tile gid="0"/>
   <tile gid="0"/>
   <tile gid="0"/>
   <tile gid="0"/>
   <tile gid="0"/>
   <tile gid="0"/>
   <tile gid="0"/>
   <tile gid="0"/>
   <tile gid="0"/>
   <tile gid="0"/>
  </data>
 </layer>
 <layer name="foreground" width="64" height="22">
  <data>
   <tile gid="0"/>
   <tile gid="0"/>
   <tile gid="0"/>
   <tile gid="0"/>
   <tile gid="0"/>
   <tile gid="0"/>
   <tile gid="0"/>
   <tile gid="0"/>
   <tile gid="0"/>
   <tile gid="0"/>
   <tile gid="0"/>
   <tile gid="0"/>
   <tile gid="0"/>
   <tile gid="0"/>
   <tile gid="0"/>
   <tile gid="0"/>
   <tile gid="0"/>
   <tile gid="0"/>
   <tile gid="0"/>
   <tile gid="0"/>
   <tile gid="0"/>
   <tile gid="0"/>
   <tile gid="0"/>
   <tile gid="0"/>
   <tile gid="0"/>
   <tile gid="0"/>
   <tile gid="0"/>
   <tile gid="0"/>
   <tile gid="0"/>
   <tile gid="0"/>
   <tile gid="0"/>
   <tile gid="0"/>
   <tile gid="0"/>
   <tile gid="0"/>
   <tile gid="0"/>
   <tile gid="0"/>
   <tile gid="0"/>
   <tile gid="0"/>
   <tile gid="0"/>
   <tile gid="0"/>
   <tile gid="0"/>
   <tile gid="0"/>
   <tile gid="0"/>
   <tile gid="0"/>
   <tile gid="0"/>
   <tile gid="0"/>
   <tile gid="0"/>
   <tile gid="0"/>
   <tile gid="0"/>
   <tile gid="0"/>
   <tile gid="0"/>
   <tile gid="0"/>
   <tile gid="0"/>
   <tile gid="0"/>
   <tile gid="0"/>
   <tile gid="0"/>
   <tile gid="0"/>
   <tile gid="0"/>
   <tile gid="0"/>
   <tile gid="0"/>
   <tile gid="0"/>
   <tile gid="0"/>
   <tile gid="0"/>
   <tile gid="0"/>
   <tile gid="0"/>
   <tile gid="0"/>
   <tile gid="0"/>
   <tile gid="0"/>
   <tile gid="0"/>
   <tile gid="0"/>
   <tile gid="0"/>
   <tile gid="0"/>
   <tile gid="0"/>
   <tile gid="0"/>
   <tile gid="0"/>
   <tile gid="0"/>
   <tile gid="0"/>
   <tile gid="0"/>
   <tile gid="0"/>
   <tile gid="0"/>
   <tile gid="0"/>
   <tile gid="0"/>
   <tile gid="0"/>
   <tile gid="0"/>
   <tile gid="0"/>
   <tile gid="0"/>
   <tile gid="0"/>
   <tile gid="0"/>
   <tile gid="0"/>
   <tile gid="0"/>
   <tile gid="0"/>
   <tile gid="0"/>
   <tile gid="0"/>
   <tile gid="0"/>
   <tile gid="0"/>
   <tile gid="0"/>
   <tile gid="0"/>
   <tile gid="0"/>
   <tile gid="0"/>
   <tile gid="0"/>
   <tile gid="0"/>
   <tile gid="0"/>
   <tile gid="0"/>
   <tile gid="0"/>
   <tile gid="0"/>
   <tile gid="0"/>
   <tile gid="0"/>
   <tile gid="0"/>
   <tile gid="0"/>
   <tile gid="0"/>
   <tile gid="0"/>
   <tile gid="0"/>
   <tile gid="0"/>
   <tile gid="0"/>
   <tile gid="0"/>
   <tile gid="0"/>
   <tile gid="0"/>
   <tile gid="0"/>
   <tile gid="0"/>
   <tile gid="0"/>
   <tile gid="0"/>
   <tile gid="0"/>
   <tile gid="0"/>
   <tile gid="0"/>
   <tile gid="0"/>
   <tile gid="0"/>
   <tile gid="0"/>
   <tile gid="0"/>
   <tile gid="0"/>
   <tile gid="0"/>
   <tile gid="0"/>
   <tile gid="0"/>
   <tile gid="0"/>
   <tile gid="0"/>
   <tile gid="0"/>
   <tile gid="0"/>
   <tile gid="0"/>
   <tile gid="0"/>
   <tile gid="0"/>
   <tile gid="0"/>
   <tile gid="0"/>
   <tile gid="0"/>
   <tile gid="0"/>
   <tile gid="0"/>
   <tile gid="0"/>
   <tile gid="0"/>
   <tile gid="0"/>
   <tile gid="0"/>
   <tile gid="0"/>
   <tile gid="0"/>
   <tile gid="0"/>
   <tile gid="0"/>
   <tile gid="0"/>
   <tile gid="0"/>
   <tile gid="0"/>
   <tile gid="0"/>
   <tile gid="0"/>
   <tile gid="0"/>
   <tile gid="0"/>
   <tile gid="0"/>
   <tile gid="0"/>
   <tile gid="0"/>
   <tile gid="0"/>
   <tile gid="0"/>
   <tile gid="0"/>
   <tile gid="0"/>
   <tile gid="0"/>
   <tile gid="0"/>
   <tile gid="0"/>
   <tile gid="0"/>
   <tile gid="0"/>
   <tile gid="0"/>
   <tile gid="0"/>
   <tile gid="0"/>
   <tile gid="0"/>
   <tile gid="0"/>
   <tile gid="0"/>
   <tile gid="0"/>
   <tile gid="0"/>
   <tile gid="0"/>
   <tile gid="0"/>
   <tile gid="0"/>
   <tile gid="0"/>
   <tile gid="0"/>
   <tile gid="0"/>
   <tile gid="0"/>
   <tile gid="0"/>
   <tile gid="0"/>
   <tile gid="0"/>
   <tile gid="0"/>
   <tile gid="0"/>
   <tile gid="0"/>
   <tile gid="0"/>
   <tile gid="0"/>
   <tile gid="0"/>
   <tile gid="0"/>
   <tile gid="0"/>
   <tile gid="0"/>
   <tile gid="0"/>
   <tile gid="0"/>
   <tile gid="0"/>
   <tile gid="0"/>
   <tile gid="0"/>
   <tile gid="0"/>
   <tile gid="0"/>
   <tile gid="0"/>
   <tile gid="0"/>
   <tile gid="0"/>
   <tile gid="0"/>
   <tile gid="0"/>
   <tile gid="0"/>
   <tile gid="0"/>
   <tile gid="0"/>
   <tile gid="0"/>
   <tile gid="0"/>
   <tile gid="0"/>
   <tile gid="0"/>
   <tile gid="0"/>
   <tile gid="0"/>
   <tile gid="0"/>
   <tile gid="0"/>
   <tile gid="0"/>
   <tile gid="0"/>
   <tile gid="0"/>
   <tile gid="0"/>
   <tile gid="0"/>
   <tile gid="0"/>
   <tile gid="0"/>
   <tile gid="0"/>
   <tile gid="0"/>
   <tile gid="0"/>
   <tile gid="0"/>
   <tile gid="0"/>
   <tile gid="0"/>
   <tile gid="0"/>
   <tile gid="0"/>
   <tile gid="0"/>
   <tile gid="0"/>
   <tile gid="0"/>
   <tile gid="0"/>
   <tile gid="0"/>
   <tile gid="0"/>
   <tile gid="0"/>
   <tile gid="0"/>
   <tile gid="0"/>
   <tile gid="0"/>
   <tile gid="0"/>
   <tile gid="0"/>
   <tile gid="0"/>
   <tile gid="0"/>
   <tile gid="0"/>
   <tile gid="0"/>
   <tile gid="0"/>
   <tile gid="0"/>
   <tile gid="0"/>
   <tile gid="0"/>
   <tile gid="0"/>
   <tile gid="0"/>
   <tile gid="0"/>
   <tile gid="0"/>
   <tile gid="0"/>
   <tile gid="0"/>
   <tile gid="0"/>
   <tile gid="0"/>
   <tile gid="0"/>
   <tile gid="0"/>
   <tile gid="0"/>
   <tile gid="0"/>
   <tile gid="0"/>
   <tile gid="0"/>
   <tile gid="0"/>
   <tile gid="0"/>
   <tile gid="0"/>
   <tile gid="0"/>
   <tile gid="0"/>
   <tile gid="0"/>
   <tile gid="0"/>
   <tile gid="0"/>
   <tile gid="0"/>
   <tile gid="0"/>
   <tile gid="0"/>
   <tile gid="0"/>
   <tile gid="0"/>
   <tile gid="0"/>
   <tile gid="0"/>
   <tile gid="0"/>
   <tile gid="0"/>
   <tile gid="0"/>
   <tile gid="0"/>
   <tile gid="0"/>
   <tile gid="0"/>
   <tile gid="0"/>
   <tile gid="0"/>
   <tile gid="0"/>
   <tile gid="0"/>
   <tile gid="0"/>
   <tile gid="0"/>
   <tile gid="0"/>
   <tile gid="0"/>
   <tile gid="0"/>
   <tile gid="0"/>
   <tile gid="0"/>
   <tile gid="0"/>
   <tile gid="0"/>
   <tile gid="0"/>
   <tile gid="0"/>
   <tile gid="0"/>
   <tile gid="0"/>
   <tile gid="0"/>
   <tile gid="0"/>
   <tile gid="0"/>
   <tile gid="0"/>
   <tile gid="0"/>
   <tile gid="0"/>
   <tile gid="0"/>
   <tile gid="0"/>
   <tile gid="0"/>
   <tile gid="0"/>
   <tile gid="0"/>
   <tile gid="0"/>
   <tile gid="0"/>
   <tile gid="0"/>
   <tile gid="0"/>
   <tile gid="0"/>
   <tile gid="0"/>
   <tile gid="0"/>
   <tile gid="0"/>
   <tile gid="0"/>
   <tile gid="0"/>
   <tile gid="0"/>
   <tile gid="0"/>
   <tile gid="0"/>
   <tile gid="0"/>
   <tile gid="0"/>
   <tile gid="0"/>
   <tile gid="0"/>
   <tile gid="0"/>
   <tile gid="0"/>
   <tile gid="0"/>
   <tile gid="0"/>
   <tile gid="0"/>
   <tile gid="0"/>
   <tile gid="0"/>
   <tile gid="0"/>
   <tile gid="0"/>
   <tile gid="0"/>
   <tile gid="0"/>
   <tile gid="0"/>
   <tile gid="0"/>
   <tile gid="0"/>
   <tile gid="0"/>
   <tile gid="0"/>
   <tile gid="0"/>
   <tile gid="0"/>
   <tile gid="0"/>
   <tile gid="0"/>
   <tile gid="0"/>
   <tile gid="0"/>
   <tile gid="0"/>
   <tile gid="0"/>
   <tile gid="0"/>
   <tile gid="0"/>
   <tile gid="0"/>
   <tile gid="0"/>
   <tile gid="0"/>
   <tile gid="0"/>
   <tile gid="0"/>
   <tile gid="0"/>
   <tile gid="0"/>
   <tile gid="0"/>
   <tile gid="0"/>
   <tile gid="0"/>
   <tile gid="0"/>
   <tile gid="0"/>
   <tile gid="0"/>
   <tile gid="0"/>
   <tile gid="0"/>
   <tile gid="0"/>
   <tile gid="0"/>
   <tile gid="0"/>
   <tile gid="0"/>
   <tile gid="0"/>
   <tile gid="0"/>
   <tile gid="0"/>
   <tile gid="0"/>
   <tile gid="0"/>
   <tile gid="0"/>
   <tile gid="0"/>
   <tile gid="0"/>
   <tile gid="0"/>
   <tile gid="0"/>
   <tile gid="0"/>
   <tile gid="0"/>
   <tile gid="0"/>
   <tile gid="0"/>
   <tile gid="0"/>
   <tile gid="0"/>
   <tile gid="0"/>
   <tile gid="0"/>
   <tile gid="0"/>
   <tile gid="0"/>
   <tile gid="0"/>
   <tile gid="0"/>
   <tile gid="0"/>
   <tile gid="0"/>
   <tile gid="0"/>
   <tile gid="0"/>
   <tile gid="0"/>
   <tile gid="0"/>
   <tile gid="0"/>
   <tile gid="0"/>
   <tile gid="0"/>
   <tile gid="0"/>
   <tile gid="0"/>
   <tile gid="0"/>
   <tile gid="0"/>
   <tile gid="0"/>
   <tile gid="0"/>
   <tile gid="0"/>
   <tile gid="0"/>
   <tile gid="0"/>
   <tile gid="0"/>
   <tile gid="0"/>
   <tile gid="0"/>
   <tile gid="0"/>
   <tile gid="0"/>
   <tile gid="0"/>
   <tile gid="0"/>
   <tile gid="0"/>
   <tile gid="0"/>
   <tile gid="0"/>
   <tile gid="0"/>
   <tile gid="0"/>
   <tile gid="0"/>
   <tile gid="0"/>
   <tile gid="0"/>
   <tile gid="0"/>
   <tile gid="0"/>
   <tile gid="0"/>
   <tile gid="0"/>
   <tile gid="0"/>
   <tile gid="0"/>
   <tile gid="0"/>
   <tile gid="0"/>
   <tile gid="0"/>
   <tile gid="0"/>
   <tile gid="0"/>
   <tile gid="0"/>
   <tile gid="0"/>
   <tile gid="0"/>
   <tile gid="0"/>
   <tile gid="0"/>
   <tile gid="0"/>
   <tile gid="0"/>
   <tile gid="0"/>
   <tile gid="0"/>
   <tile gid="0"/>
   <tile gid="0"/>
   <tile gid="0"/>
   <tile gid="0"/>
   <tile gid="0"/>
   <tile gid="0"/>
   <tile gid="0"/>
   <tile gid="0"/>
   <tile gid="0"/>
   <tile gid="0"/>
   <tile gid="0"/>
   <tile gid="0"/>
   <tile gid="5"/>
   <tile gid="0"/>
   <tile gid="0"/>
   <tile gid="0"/>
   <tile gid="0"/>
   <tile gid="0"/>
   <tile gid="0"/>
   <tile gid="0"/>
   <tile gid="0"/>
   <tile gid="0"/>
   <tile gid="0"/>
   <tile gid="6"/>
   <tile gid="0"/>
   <tile gid="0"/>
   <tile gid="0"/>
   <tile gid="0"/>
   <tile gid="0"/>
   <tile gid="0"/>
   <tile gid="0"/>
   <tile gid="0"/>
   <tile gid="0"/>
   <tile gid="0"/>
   <tile gid="0"/>
   <tile gid="0"/>
   <tile gid="0"/>
   <tile gid="0"/>
   <tile gid="0"/>
   <tile gid="0"/>
   <tile gid="0"/>
   <tile gid="0"/>
   <tile gid="0"/>
   <tile gid="0"/>
   <tile gid="0"/>
   <tile gid="0"/>
   <tile gid="0"/>
   <tile gid="0"/>
   <tile gid="0"/>
   <tile gid="0"/>
   <tile gid="0"/>
   <tile gid="0"/>
   <tile gid="0"/>
   <tile gid="0"/>
   <tile gid="0"/>
   <tile gid="0"/>
   <tile gid="0"/>
   <tile gid="0"/>
   <tile gid="0"/>
   <tile gid="0"/>
   <tile gid="0"/>
   <tile gid="0"/>
   <tile gid="0"/>
   <tile gid="0"/>
   <tile gid="0"/>
   <tile gid="0"/>
   <tile gid="0"/>
   <tile gid="0"/>
   <tile gid="0"/>
   <tile gid="0"/>
   <tile gid="0"/>
   <tile gid="0"/>
   <tile gid="0"/>
   <tile gid="0"/>
   <tile gid="0"/>
   <tile gid="0"/>
   <tile gid="0"/>
   <tile gid="0"/>
   <tile gid="0"/>
   <tile gid="0"/>
   <tile gid="0"/>
   <tile gid="0"/>
   <tile gid="0"/>
   <tile gid="0"/>
   <tile gid="0"/>
   <tile gid="0"/>
   <tile gid="0"/>
   <tile gid="0"/>
   <tile gid="0"/>
   <tile gid="0"/>
   <tile gid="0"/>
   <tile gid="0"/>
   <tile gid="0"/>
   <tile gid="0"/>
   <tile gid="0"/>
   <tile gid="0"/>
   <tile gid="0"/>
   <tile gid="0"/>
   <tile gid="0"/>
   <tile gid="0"/>
   <tile gid="0"/>
   <tile gid="0"/>
   <tile gid="0"/>
   <tile gid="0"/>
   <tile gid="0"/>
   <tile gid="0"/>
   <tile gid="0"/>
   <tile gid="0"/>
   <tile gid="0"/>
   <tile gid="0"/>
   <tile gid="0"/>
   <tile gid="0"/>
   <tile gid="0"/>
   <tile gid="0"/>
   <tile gid="0"/>
   <tile gid="0"/>
   <tile gid="0"/>
   <tile gid="0"/>
   <tile gid="0"/>
   <tile gid="0"/>
   <tile gid="0"/>
   <tile gid="0"/>
   <tile gid="0"/>
   <tile gid="0"/>
   <tile gid="0"/>
   <tile gid="8"/>
   <tile gid="0"/>
   <tile gid="0"/>
   <tile gid="0"/>
   <tile gid="0"/>
   <tile gid="0"/>
   <tile gid="0"/>
   <tile gid="0"/>
   <tile gid="0"/>
   <tile gid="5"/>
   <tile gid="0"/>
   <tile gid="0"/>
   <tile gid="0"/>
   <tile gid="0"/>
   <tile gid="0"/>
   <tile gid="0"/>
   <tile gid="0"/>
   <tile gid="0"/>
   <tile gid="0"/>
   <tile gid="0"/>
   <tile gid="0"/>
   <tile gid="0"/>
   <tile gid="0"/>
   <tile gid="0"/>
   <tile gid="0"/>
   <tile gid="0"/>
   <tile gid="0"/>
   <tile gid="0"/>
   <tile gid="0"/>
   <tile gid="0"/>
   <tile gid="0"/>
   <tile gid="0"/>
   <tile gid="0"/>
   <tile gid="0"/>
   <tile gid="0"/>
   <tile gid="0"/>
   <tile gid="0"/>
   <tile gid="0"/>
   <tile gid="0"/>
   <tile gid="0"/>
   <tile gid="0"/>
   <tile gid="0"/>
   <tile gid="0"/>
   <tile gid="0"/>
   <tile gid="0"/>
   <tile gid="0"/>
   <tile gid="0"/>
   <tile gid="0"/>
   <tile gid="0"/>
   <tile gid="0"/>
   <tile gid="0"/>
   <tile gid="0"/>
   <tile gid="0"/>
   <tile gid="0"/>
   <tile gid="0"/>
   <tile gid="0"/>
   <tile gid="0"/>
   <tile gid="0"/>
   <tile gid="0"/>
   <tile gid="0"/>
   <tile gid="0"/>
   <tile gid="0"/>
   <tile gid="0"/>
   <tile gid="0"/>
   <tile gid="0"/>
   <tile gid="0"/>
   <tile gid="0"/>
   <tile gid="0"/>
   <tile gid="0"/>
   <tile gid="0"/>
   <tile gid="0"/>
   <tile gid="0"/>
   <tile gid="0"/>
   <tile gid="0"/>
   <tile gid="0"/>
   <tile gid="0"/>
   <tile gid="0"/>
   <tile gid="0"/>
   <tile gid="0"/>
   <tile gid="0"/>
   <tile gid="0"/>
   <tile gid="0"/>
   <tile gid="0"/>
   <tile gid="0"/>
   <tile gid="0"/>
   <tile gid="0"/>
   <tile gid="0"/>
   <tile gid="0"/>
   <tile gid="0"/>
   <tile gid="0"/>
   <tile gid="0"/>
   <tile gid="0"/>
   <tile gid="0"/>
   <tile gid="0"/>
   <tile gid="0"/>
   <tile gid="0"/>
   <tile gid="0"/>
   <tile gid="0"/>
   <tile gid="0"/>
   <tile gid="0"/>
   <tile gid="0"/>
   <tile gid="0"/>
   <tile gid="0"/>
   <tile gid="0"/>
   <tile gid="0"/>
   <tile gid="0"/>
   <tile gid="0"/>
   <tile gid="0"/>
   <tile gid="0"/>
   <tile gid="0"/>
   <tile gid="0"/>
   <tile gid="0"/>
   <tile gid="0"/>
   <tile gid="0"/>
   <tile gid="0"/>
   <tile gid="0"/>
   <tile gid="0"/>
   <tile gid="0"/>
   <tile gid="0"/>
   <tile gid="0"/>
   <tile gid="0"/>
   <tile gid="0"/>
   <tile gid="0"/>
   <tile gid="0"/>
   <tile gid="0"/>
   <tile gid="0"/>
   <tile gid="0"/>
   <tile gid="0"/>
   <tile gid="0"/>
   <tile gid="0"/>
   <tile gid="0"/>
   <tile gid="0"/>
   <tile gid="0"/>
   <tile gid="0"/>
   <tile gid="0"/>
   <tile gid="0"/>
   <tile gid="0"/>
   <tile gid="0"/>
   <tile gid="0"/>
   <tile gid="0"/>
   <tile gid="0"/>
   <tile gid="0"/>
   <tile gid="0"/>
   <tile gid="0"/>
   <tile gid="0"/>
   <tile gid="0"/>
   <tile gid="0"/>
   <tile gid="0"/>
   <tile gid="0"/>
   <tile gid="0"/>
   <tile gid="0"/>
   <tile gid="0"/>
   <tile gid="0"/>
   <tile gid="0"/>
   <tile gid="0"/>
   <tile gid="0"/>
   <tile gid="0"/>
   <tile gid="0"/>
   <tile gid="0"/>
   <tile gid="0"/>
   <tile gid="0"/>
   <tile gid="0"/>
   <tile gid="0"/>
   <tile gid="0"/>
   <tile gid="0"/>
   <tile gid="0"/>
   <tile gid="0"/>
   <tile gid="0"/>
   <tile gid="0"/>
   <tile gid="0"/>
   <tile gid="0"/>
   <tile gid="0"/>
   <tile gid="0"/>
   <tile gid="0"/>
   <tile gid="0"/>
   <tile gid="0"/>
   <tile gid="0"/>
   <tile gid="0"/>
   <tile gid="0"/>
   <tile gid="0"/>
   <tile gid="0"/>
   <tile gid="0"/>
   <tile gid="0"/>
   <tile gid="0"/>
   <tile gid="0"/>
   <tile gid="0"/>
   <tile gid="0"/>
   <tile gid="0"/>
   <tile gid="0"/>
   <tile gid="0"/>
   <tile gid="0"/>
   <tile gid="0"/>
   <tile gid="0"/>
   <tile gid="0"/>
   <tile gid="0"/>
   <tile gid="0"/>
   <tile gid="0"/>
   <tile gid="0"/>
   <tile gid="0"/>
   <tile gid="0"/>
   <tile gid="0"/>
   <tile gid="0"/>
   <tile gid="0"/>
   <tile gid="0"/>
   <tile gid="0"/>
   <tile gid="0"/>
   <tile gid="0"/>
   <tile gid="0"/>
   <tile gid="0"/>
   <tile gid="0"/>
   <tile gid="0"/>
   <tile gid="0"/>
   <tile gid="0"/>
   <tile gid="0"/>
   <tile gid="0"/>
   <tile gid="0"/>
   <tile gid="0"/>
   <tile gid="0"/>
   <tile gid="0"/>
   <tile gid="0"/>
   <tile gid="0"/>
   <tile gid="0"/>
   <tile gid="0"/>
   <tile gid="0"/>
   <tile gid="0"/>
   <tile gid="0"/>
   <tile gid="0"/>
   <tile gid="0"/>
   <tile gid="0"/>
   <tile gid="0"/>
   <tile gid="0"/>
   <tile gid="0"/>
   <tile gid="0"/>
   <tile gid="0"/>
   <tile gid="0"/>
   <tile gid="0"/>
   <tile gid="0"/>
   <tile gid="0"/>
   <tile gid="0"/>
   <tile gid="0"/>
   <tile gid="0"/>
   <tile gid="0"/>
   <tile gid="0"/>
   <tile gid="0"/>
   <tile gid="0"/>
   <tile gid="0"/>
   <tile gid="0"/>
   <tile gid="0"/>
   <tile gid="0"/>
   <tile gid="0"/>
   <tile gid="0"/>
   <tile gid="0"/>
   <tile gid="0"/>
   <tile gid="0"/>
   <tile gid="0"/>
   <tile gid="0"/>
   <tile gid="0"/>
   <tile gid="0"/>
   <tile gid="0"/>
   <tile gid="0"/>
   <tile gid="0"/>
   <tile gid="0"/>
   <tile gid="0"/>
   <tile gid="0"/>
   <tile gid="0"/>
   <tile gid="0"/>
   <tile gid="0"/>
   <tile gid="0"/>
   <tile gid="0"/>
   <tile gid="0"/>
   <tile gid="0"/>
   <tile gid="0"/>
   <tile gid="0"/>
   <tile gid="0"/>
   <tile gid="0"/>
   <tile gid="0"/>
   <tile gid="0"/>
   <tile gid="0"/>
   <tile gid="0"/>
   <tile gid="0"/>
   <tile gid="0"/>
   <tile gid="0"/>
   <tile gid="0"/>
   <tile gid="0"/>
   <tile gid="0"/>
   <tile gid="0"/>
   <tile gid="0"/>
   <tile gid="0"/>
   <tile gid="0"/>
   <tile gid="0"/>
   <tile gid="0"/>
   <tile gid="0"/>
   <tile gid="0"/>
   <tile gid="0"/>
   <tile gid="0"/>
   <tile gid="0"/>
   <tile gid="0"/>
   <tile gid="0"/>
   <tile gid="0"/>
   <tile gid="0"/>
   <tile gid="0"/>
   <tile gid="0"/>
   <tile gid="0"/>
   <tile gid="0"/>
   <tile gid="0"/>
   <tile gid="0"/>
   <tile gid="0"/>
   <tile gid="0"/>
   <tile gid="0"/>
   <tile gid="0"/>
   <tile gid="0"/>
   <tile gid="0"/>
   <tile gid="0"/>
   <tile gid="0"/>
   <tile gid="0"/>
   <tile gid="0"/>
   <tile gid="0"/>
   <tile gid="0"/>
   <tile gid="0"/>
   <tile gid="0"/>
   <tile gid="0"/>
   <tile gid="0"/>
   <tile gid="0"/>
   <tile gid="0"/>
   <tile gid="0"/>
   <tile gid="0"/>
   <tile gid="0"/>
   <tile gid="0"/>
   <tile gid="0"/>
   <tile gid="0"/>
   <tile gid="0"/>
   <tile gid="0"/>
   <tile gid="0"/>
   <tile gid="0"/>
   <tile gid="0"/>
   <tile gid="0"/>
   <tile gid="0"/>
   <tile gid="0"/>
   <tile gid="0"/>
   <tile gid="0"/>
   <tile gid="0"/>
   <tile gid="0"/>
   <tile gid="0"/>
   <tile gid="0"/>
   <tile gid="0"/>
   <tile gid="0"/>
   <tile gid="0"/>
   <tile gid="0"/>
   <tile gid="0"/>
   <tile gid="0"/>
   <tile gid="0"/>
   <tile gid="0"/>
   <tile gid="0"/>
   <tile gid="0"/>
   <tile gid="0"/>
   <tile gid="0"/>
   <tile gid="0"/>
   <tile gid="0"/>
   <tile gid="0"/>
   <tile gid="0"/>
   <tile gid="0"/>
   <tile gid="0"/>
   <tile gid="0"/>
   <tile gid="0"/>
   <tile gid="0"/>
   <tile gid="0"/>
   <tile gid="0"/>
   <tile gid="0"/>
   <tile gid="0"/>
   <tile gid="0"/>
   <tile gid="0"/>
   <tile gid="0"/>
   <tile gid="0"/>
   <tile gid="0"/>
   <tile gid="0"/>
   <tile gid="0"/>
   <tile gid="0"/>
   <tile gid="0"/>
   <tile gid="0"/>
   <tile gid="0"/>
   <tile gid="0"/>
   <tile gid="0"/>
   <tile gid="0"/>
   <tile gid="0"/>
   <tile gid="0"/>
   <tile gid="0"/>
   <tile gid="0"/>
   <tile gid="0"/>
   <tile gid="0"/>
   <tile gid="0"/>
   <tile gid="0"/>
   <tile gid="0"/>
   <tile gid="0"/>
   <tile gid="0"/>
   <tile gid="0"/>
   <tile gid="0"/>
   <tile gid="0"/>
   <tile gid="0"/>
   <tile gid="0"/>
   <tile gid="0"/>
   <tile gid="0"/>
   <tile gid="0"/>
   <tile gid="0"/>
   <tile gid="0"/>
   <tile gid="0"/>
   <tile gid="0"/>
   <tile gid="0"/>
   <tile gid="0"/>
   <tile gid="0"/>
   <tile gid="0"/>
   <tile gid="0"/>
   <tile gid="0"/>
   <tile gid="0"/>
   <tile gid="0"/>
   <tile gid="0"/>
   <tile gid="0"/>
   <tile gid="0"/>
   <tile gid="0"/>
   <tile gid="0"/>
   <tile gid="0"/>
   <tile gid="5"/>
   <tile gid="0"/>
   <tile gid="0"/>
   <tile gid="0"/>
   <tile gid="0"/>
   <tile gid="0"/>
   <tile gid="0"/>
   <tile gid="0"/>
   <tile gid="0"/>
   <tile gid="0"/>
   <tile gid="0"/>
   <tile gid="0"/>
   <tile gid="0"/>
   <tile gid="0"/>
   <tile gid="0"/>
   <tile gid="0"/>
   <tile gid="0"/>
   <tile gid="5"/>
   <tile gid="0"/>
   <tile gid="0"/>
   <tile gid="0"/>
   <tile gid="0"/>
   <tile gid="0"/>
   <tile gid="0"/>
   <tile gid="0"/>
   <tile gid="0"/>
   <tile gid="0"/>
   <tile gid="0"/>
   <tile gid="0"/>
   <tile gid="0"/>
   <tile gid="0"/>
   <tile gid="0"/>
   <tile gid="0"/>
   <tile gid="0"/>
   <tile gid="0"/>
   <tile gid="0"/>
   <tile gid="0"/>
   <tile gid="0"/>
   <tile gid="0"/>
   <tile gid="0"/>
   <tile gid="0"/>
   <tile gid="0"/>
   <tile gid="0"/>
   <tile gid="0"/>
   <tile gid="0"/>
   <tile gid="0"/>
   <tile gid="0"/>
   <tile gid="0"/>
   <tile gid="0"/>
   <tile gid="0"/>
   <tile gid="0"/>
   <tile gid="0"/>
   <tile gid="0"/>
   <tile gid="0"/>
   <tile gid="0"/>
   <tile gid="0"/>
   <tile gid="0"/>
   <tile gid="0"/>
   <tile gid="0"/>
   <tile gid="0"/>
   <tile gid="0"/>
   <tile gid="0"/>
   <tile gid="0"/>
   <tile gid="0"/>
   <tile gid="0"/>
   <tile gid="0"/>
   <tile gid="0"/>
   <tile gid="0"/>
   <tile gid="0"/>
   <tile gid="0"/>
   <tile gid="0"/>
   <tile gid="0"/>
   <tile gid="0"/>
   <tile gid="0"/>
   <tile gid="0"/>
   <tile gid="0"/>
   <tile gid="0"/>
   <tile gid="0"/>
   <tile gid="0"/>
   <tile gid="0"/>
   <tile gid="0"/>
   <tile gid="0"/>
   <tile gid="0"/>
   <tile gid="0"/>
   <tile gid="0"/>
   <tile gid="0"/>
   <tile gid="0"/>
   <tile gid="0"/>
   <tile gid="0"/>
   <tile gid="0"/>
   <tile gid="0"/>
   <tile gid="0"/>
   <tile gid="0"/>
   <tile gid="0"/>
   <tile gid="0"/>
   <tile gid="0"/>
   <tile gid="0"/>
   <tile gid="0"/>
   <tile gid="0"/>
   <tile gid="0"/>
   <tile gid="0"/>
   <tile gid="0"/>
   <tile gid="0"/>
   <tile gid="0"/>
   <tile gid="0"/>
   <tile gid="0"/>
   <tile gid="0"/>
   <tile gid="0"/>
   <tile gid="0"/>
   <tile gid="0"/>
   <tile gid="0"/>
   <tile gid="0"/>
   <tile gid="0"/>
   <tile gid="0"/>
   <tile gid="0"/>
   <tile gid="0"/>
   <tile gid="0"/>
   <tile gid="0"/>
   <tile gid="0"/>
   <tile gid="0"/>
   <tile gid="0"/>
   <tile gid="0"/>
   <tile gid="0"/>
   <tile gid="0"/>
   <tile gid="0"/>
   <tile gid="0"/>
   <tile gid="0"/>
   <tile gid="0"/>
   <tile gid="0"/>
   <tile gid="0"/>
   <tile gid="0"/>
   <tile gid="0"/>
   <tile gid="0"/>
   <tile gid="0"/>
   <tile gid="0"/>
   <tile gid="0"/>
   <tile gid="0"/>
   <tile gid="0"/>
   <tile gid="0"/>
   <tile gid="0"/>
   <tile gid="0"/>
   <tile gid="0"/>
   <tile gid="0"/>
   <tile gid="0"/>
   <tile gid="0"/>
   <tile gid="0"/>
   <tile gid="0"/>
   <tile gid="0"/>
   <tile gid="0"/>
   <tile gid="0"/>
   <tile gid="0"/>
   <tile gid="0"/>
   <tile gid="0"/>
   <tile gid="0"/>
   <tile gid="0"/>
   <tile gid="0"/>
   <tile gid="0"/>
   <tile gid="0"/>
   <tile gid="0"/>
   <tile gid="0"/>
   <tile gid="0"/>
   <tile gid="0"/>
   <tile gid="0"/>
   <tile gid="0"/>
   <tile gid="0"/>
   <tile gid="0"/>
   <tile gid="0"/>
   <tile gid="0"/>
   <tile gid="0"/>
   <tile gid="0"/>
   <tile gid="0"/>
   <tile gid="0"/>
   <tile gid="0"/>
   <tile gid="0"/>
   <tile gid="0"/>
   <tile gid="0"/>
   <tile gid="0"/>
   <tile gid="0"/>
   <tile gid="0"/>
   <tile gid="0"/>
   <tile gid="0"/>
   <tile gid="0"/>
   <tile gid="0"/>
   <tile gid="0"/>
   <tile gid="0"/>
   <tile gid="0"/>
   <tile gid="0"/>
   <tile gid="0"/>
   <tile gid="0"/>
   <tile gid="0"/>
   <tile gid="0"/>
   <tile gid="0"/>
   <tile gid="0"/>
   <tile gid="0"/>
   <tile gid="0"/>
   <tile gid="0"/>
   <tile gid="0"/>
   <tile gid="0"/>
   <tile gid="0"/>
   <tile gid="0"/>
   <tile gid="0"/>
   <tile gid="0"/>
   <tile gid="0"/>
   <tile gid="0"/>
   <tile gid="0"/>
   <tile gid="0"/>
   <tile gid="0"/>
   <tile gid="0"/>
   <tile gid="0"/>
   <tile gid="0"/>
   <tile gid="0"/>
   <tile gid="0"/>
   <tile gid="0"/>
   <tile gid="0"/>
   <tile gid="0"/>
   <tile gid="0"/>
   <tile gid="0"/>
   <tile gid="0"/>
   <tile gid="0"/>
   <tile gid="0"/>
   <tile gid="0"/>
   <tile gid="0"/>
   <tile gid="0"/>
   <tile gid="0"/>
   <tile gid="0"/>
   <tile gid="0"/>
   <tile gid="0"/>
   <tile gid="0"/>
   <tile gid="0"/>
   <tile gid="0"/>
   <tile gid="0"/>
   <tile gid="0"/>
   <tile gid="0"/>
   <tile gid="0"/>
   <tile gid="0"/>
   <tile gid="0"/>
   <tile gid="0"/>
   <tile gid="0"/>
   <tile gid="0"/>
   <tile gid="0"/>
   <tile gid="0"/>
   <tile gid="0"/>
   <tile gid="0"/>
   <tile gid="0"/>
   <tile gid="0"/>
   <tile gid="0"/>
   <tile gid="0"/>
   <tile gid="0"/>
   <tile gid="0"/>
   <tile gid="0"/>
   <tile gid="0"/>
   <tile gid="0"/>
   <tile gid="0"/>
   <tile gid="0"/>
   <tile gid="0"/>
   <tile gid="0"/>
   <tile gid="0"/>
   <tile gid="0"/>
   <tile gid="0"/>
   <tile gid="0"/>
   <tile gid="0"/>
   <tile gid="0"/>
   <tile gid="0"/>
   <tile gid="0"/>
   <tile gid="0"/>
   <tile gid="0"/>
   <tile gid="0"/>
   <tile gid="0"/>
   <tile gid="0"/>
   <tile gid="0"/>
   <tile gid="0"/>
   <tile gid="0"/>
   <tile gid="0"/>
   <tile gid="0"/>
   <tile gid="0"/>
   <tile gid="0"/>
   <tile gid="0"/>
   <tile gid="0"/>
   <tile gid="0"/>
   <tile gid="0"/>
   <tile gid="0"/>
   <tile gid="0"/>
   <tile gid="0"/>
   <tile gid="0"/>
   <tile gid="0"/>
   <tile gid="0"/>
   <tile gid="0"/>
   <tile gid="0"/>
   <tile gid="0"/>
   <tile gid="0"/>
   <tile gid="0"/>
   <tile gid="0"/>
   <tile gid="0"/>
   <tile gid="0"/>
   <tile gid="0"/>
   <tile gid="0"/>
   <tile gid="0"/>
   <tile gid="0"/>
   <tile gid="0"/>
   <tile gid="0"/>
   <tile gid="0"/>
   <tile gid="0"/>
   <tile gid="0"/>
   <tile gid="0"/>
   <tile gid="0"/>
   <tile gid="0"/>
   <tile gid="0"/>
   <tile gid="0"/>
   <tile gid="0"/>
   <tile gid="0"/>
   <tile gid="0"/>
   <tile gid="0"/>
   <tile gid="0"/>
   <tile gid="0"/>
   <tile gid="0"/>
   <tile gid="0"/>
   <tile gid="0"/>
   <tile gid="0"/>
   <tile gid="0"/>
   <tile gid="0"/>
   <tile gid="0"/>
   <tile gid="0"/>
   <tile gid="0"/>
   <tile gid="0"/>
   <tile gid="0"/>
   <tile gid="0"/>
   <tile gid="0"/>
   <tile gid="0"/>
   <tile gid="0"/>
   <tile gid="0"/>
   <tile gid="0"/>
   <tile gid="0"/>
   <tile gid="0"/>
   <tile gid="0"/>
   <tile gid="0"/>
   <tile gid="0"/>
   <tile gid="0"/>
   <tile gid="0"/>
   <tile gid="0"/>
   <tile gid="0"/>
   <tile gid="0"/>
   <tile gid="0"/>
   <tile gid="0"/>
   <tile gid="0"/>
   <tile gid="0"/>
   <tile gid="0"/>
   <tile gid="0"/>
   <tile gid="0"/>
   <tile gid="0"/>
   <tile gid="0"/>
   <tile gid="0"/>
   <tile gid="0"/>
   <tile gid="0"/>
   <tile gid="0"/>
   <tile gid="0"/>
   <tile gid="0"/>
   <tile gid="0"/>
   <tile gid="0"/>
   <tile gid="0"/>
   <tile gid="0"/>
   <tile gid="0"/>
   <tile gid="0"/>
   <tile gid="0"/>
   <tile gid="0"/>
   <tile gid="0"/>
   <tile gid="0"/>
   <tile gid="0"/>
   <tile gid="0"/>
   <tile gid="0"/>
   <tile gid="0"/>
   <tile gid="0"/>
   <tile gid="0"/>
   <tile gid="0"/>
   <tile gid="0"/>
   <tile gid="0"/>
   <tile gid="0"/>
   <tile gid="0"/>
   <tile gid="0"/>
   <tile gid="0"/>
   <tile gid="0"/>
   <tile gid="0"/>
   <tile gid="0"/>
   <tile gid="0"/>
   <tile gid="0"/>
   <tile gid="0"/>
   <tile gid="0"/>
   <tile gid="0"/>
   <tile gid="0"/>
   <tile gid="0"/>
   <tile gid="0"/>
   <tile gid="0"/>
   <tile gid="0"/>
   <tile gid="0"/>
   <tile gid="0"/>
   <tile gid="0"/>
   <tile gid="0"/>
   <tile gid="0"/>
   <tile gid="0"/>
   <tile gid="0"/>
   <tile gid="0"/>
   <tile gid="0"/>
   <tile gid="0"/>
   <tile gid="0"/>
   <tile gid="0"/>
   <tile gid="0"/>
   <tile gid="0"/>
   <tile gid="0"/>
  </data>
 </layer>
</map>
