<?xml version="1.0" encoding="UTF-8"?>
<map version="1.0" orientation="orthogonal" width="20" height="12" tilewidth="70" tileheight="70" backgroundcolor="#3c4556">
 <tileset firstgid="1" name="map_tiles_70" tilewidth="70" tileheight="70">
  <image source="map_tiles_70.png" width="560" height="140"/>
  <tile id="0"/>
  <tile id="1"/>
  <tile id="2"/>
  <tile id="3"/>
 </tileset>
 <objectgroup color="#ffff00" name="items" width="20" height="12">
  <object name="gun" type="items" x="140" y="560" width="70" height="140">
   <properties>
    <property name="bullets" value="6"/>
   </properties>
  </object>
  <object name="key" type="items" x="1190" y="700" width="70" height="140"/>
  <object name="health" type="items" x="1330" y="700" width="70" height="140"/>
  <object name="exit_sign" type="items" x="1190" y="350" width="70" height="140"/>
  <object name="door" type="items" x="1120" y="350" width="70" height="140"/>
 </objectgroup>
 <objectgroup color="#00aa00" name="player" width="20" height="12">
  <object name="player" type="player" x="0" y="686" width="70" height="140">
   <properties>
    <property name="hint" value="That rift is too wide to jump. I need a dash"/>
   </properties>
  </object>
 </objectgroup>
 <objectgroup color="#ff0000" name="enemies" width="20" height="12">
  <object name="zombie" type="enemy" x="1190" y="476" width="70" height="140">
   <properties>
    <property name="archetype" value="spitter"/>
   </properties>
  </object>
  <object name="zombie" type="enemy" x="1120" y="686" width="70" height="140">
   <properties>
    <property name="archetype" value="walker"/>
   </properties>
  </object>
  <object name="zombie" type="enemy" x="1260" y="686" width="70" height="140">
   <properties>
    <property name="archetype" value="runner"/>
   </properties>
  </object>
 </objectgroup>
 <layer name="collision" width="20" height="12">
  <data>
   <tile gid="0"/>
   <tile gid="0"/>
   <tile gid="0"/>
   <tile gid="0"/>
   <tile gid="0"/>
   <tile gid="0"/>
   <tile gid="0"/>
   <tile gid="0"/>
   <tile gid="0"/>
   <tile gid="0"/>
   <tile gid="0"/>
   <tile gid="0"/>
   <tile gid="0"/>
   <tile gid="0"/>
   <tile gid="0"/>
   <tile gid="0"/>
   <tile gid="0"/>
   <tile gid="0"/>
   <tile gid="0"/>
   <tile gid="0"/>
   <tile gid="0"/>
   <tile gid="0"/>
   <tile gid="0"/>
   <tile gid="0"/>
   <tile gid="0"/>
   <tile gid="0"/>
   <tile gid="0"/>
   <tile gid="0"/>
   <tile gid="0"/>
   <tile gid="0"/>
   <tile gid="0"/>
   <tile gid="0"/>
   <tile gid="0"/>
   <tile gid="0"/>
   <tile gid="0"/>
   <tile gid="0"/>
   <tile gid="0"/>
   <tile gid="0"/>
   <tile gid="0"/>
   <tile gid="0"/>
   <tile gid="0"/>
   <tile gid="0"/>
   <tile gid="0"/>
   <tile gid="0"/>
   <tile gid="0"/>
   <tile gid="0"/>
   <tile gid="0"/>
   <tile gid="0"/>
   <tile gid="0"/>
   <tile gid="0"/>
   <tile gid="0"/>
   <tile gid="0"/>
   <tile gid="0"/>
   <tile gid="0"/>
   <tile gid="0"/>
   <tile gid="0"/>
   <tile gid="0"/>
   <tile gid="0"/>
   <tile gid="0"/>
   <tile gid="0"/>
   <tile gid="0"/>
   <tile gid="0"/>
   <tile gid="0"/>
   <tile gid="0"/>
   <tile gid="0"/>
   <tile gid="0"/>
   <tile gid="0"/>
   <tile gid="0"/>
   <tile gid="0"/>
   <tile gid="0"/>
   <tile gid="0"/>
   <tile gid="0"/>
   <tile gid="0"/>
   <tile gid="0"/>
   <tile gid="0"/>
   <tile gid="0"/>
   <tile gid="0"/>
   <tile gid="0"/>
   <tile gid="0"/>
   <tile gid="0"/>
   <tile gid="0"/>
   <tile gid="0"/>
   <tile gid="0"/>
   <tile gid="0"/>
   <tile gid="0"/>
   <tile gid="0"/>
   <tile gid="0"/>
   <tile gid="0"/>
   <tile gid="0"/>
   <tile gid="0"/>
   <tile gid="0"/>
   <tile gid="0"/>
   <tile gid="0"/>
   <tile gid="0"/>
   <tile gid="0"/>
   <tile gid="0"/>
   <tile gid="0"/>
   <tile gid="0"/>
   <tile gid="0"/>
   <tile gid="0"/>
   <tile gid="0"/>
   <tile gid="0"/>
   <tile gid="0"/>
   <tile gid="0"/>
   <tile gid="0"/>
   <tile gid="0"/>
   <tile gid="0"/>
   <tile gid="0"/>
   <tile gid="0"/>
   <tile gid="0"/>
   <tile gid="0"/>
   <tile gid="0"/>
   <tile gid="0"/>
   <tile gid="0"/>
   <tile gid="0"/>
   <tile gid="0"/>
   <tile gid="0"/>
   <tile gid="0"/>
   <tile gid="0"/>
   <tile gid="0"/>
   <tile gid="0"/>
   <tile gid="0"/>
   <tile gid="0"/>
   <tile gid="0"/>
   <tile gid="0"/>
   <tile gid="0"/>
   <tile gid="0"/>
   <tile gid="0"/>
   <tile gid="0"/>
   <tile gid="0"/>
   <tile gid="0"/>
   <tile gid="0"/>
   <tile gid="0"/>
   <tile gid="0"/>
   <tile gid="0"/>
   <tile gid="1"/>
   <tile gid="4"/>
   <tile gid="3"/>
   <tile gid="0"/>
   <tile gid="0"/>
   <tile gid="0"/>
   <tile gid="0"/>
   <tile gid="0"/>
   <tile gid="0"/>
   <tile gid="0"/>
   <tile gid="0"/>
   <tile gid="0"/>
   <tile gid="0"/>
   <tile gid="0"/>
   <tile gid="0"/>
   <tile gid="0"/>
   <tile gid="0"/>
   <tile gid="0"/>
   <tile gid="0"/>
   <tile gid="0"/>
   <tile gid="0"/>
   <tile gid="0"/>
   <tile gid="0"/>
   <tile gid="0"/>
   <tile gid="0"/>
   <tile gid="0"/>
   <tile gid="0"/>
   <tile gid="0"/>
   <tile gid="0"/>
   <tile gid="0"/>
   <tile gid="0"/>
   <tile gid="0"/>
   <tile gid="0"/>
   <tile gid="0"/>
   <tile gid="0"/>
   <tile gid="0"/>
   <tile gid="0"/>
   <tile gid="0"/>
   <tile gid="0"/>
   <tile gid="0"/>
   <tile gid="0"/>
   <tile gid="1"/>
   <tile gid="2"/>
   <tile gid="2"/>
   <tile gid="3"/>
   <tile gid="0"/>
   <tile gid="1"/>
   <tile gid="2"/>
   <tile gid="3"/>
   <tile gid="0"/>
   <tile gid="0"/>
   <tile gid="0"/>
   <tile gid="0"/>
   <tile gid="0"/>
   <tile gid="0"/>
   <tile gid="0"/>
   <tile gid="0"/>
   <tile gid="0"/>
   <tile gid="0"/>
   <tile gid="0"/>
   <tile gid="0"/>
   <tile gid="0"/>
   <tile gid="0"/>
   <tile gid="0"/>
   <tile gid="0"/>
   <tile gid="0"/>
   <tile gid="1"/>
   <tile gid="4"/>
   <tile gid="3"/>
   <tile gid="0"/>
   <tile gid="0"/>
   <tile gid="0"/>
   <tile gid="0"/>
   <tile gid="0"/>
   <tile gid="0"/>
   <tile gid="0"/>
   <tile gid="0"/>
   <tile gid="0"/>
   <tile gid="0"/>
   <tile gid="0"/>
   <tile gid="0"/>
   <tile gid="0"/>
   <tile gid="0"/>
   <tile gid="0"/>
   <tile gid="0"/>
   <tile gid="1"/>
   <tile gid="4"/>
   <tile gid="2"/>
   <tile gid="3"/>
   <tile gid="0"/>
   <tile gid="0"/>
   <tile gid="0"/>
   <tile gid="0"/>
   <tile gid="0"/>
   <tile gid="0"/>
   <tile gid="0"/>
   <tile gid="0"/>
   <tile gid="0"/>
   <tile gid="0"/>
   <tile gid="0"/>
   <tile gid="1"/>
   <tile gid="4"/>
   <tile gid="2"/>
   <tile gid="5"/>
   <tile gid="3"/>
  </data>
 </layer>
 <layer name="foreground" width="20" height="12">
  <data>
   <tile gid="0"/>
   <tile gid="0"/>
   <tile gid="0"/>
   <tile gid="0"/>
   <tile gid="0"/>
   <tile gid="0"/>
   <tile gid="0"/>
   <tile gid="0"/>
   <tile gid="0"/>
   <tile gid="0"/>
   <tile gid="0"/>
   <tile gid="0"/>
   <tile gid="0"/>
   <tile gid="0"/>
   <tile gid="0"/>
   <tile gid="0"/>
   <tile gid="0"/>
   <tile gid="0"/>
   <tile gid="0"/>
   <tile gid="0"/>
   <tile gid="0"/>
   <tile gid="0"/>
   <tile gid="0"/>
   <tile gid="0"/>
   <tile gid="0"/>
   <tile gid="0"/>
   <tile gid="0"/>
   <tile gid="0"/>
   <tile gid="0"/>
   <tile gid="0"/>
   <tile gid="0"/>
   <tile gid="0"/>
   <tile gid="0"/>
   <tile gid="0"/>
   <tile gid="0"/>
   <tile gid="0"/>
   <tile gid="0"/>
   <tile gid="0"/>
   <tile gid="0"/>
   <tile gid="0"/>
   <tile gid="0"/>
   <tile gid="0"/>
   <tile gid="0"/>
   <tile gid="0"/>
   <tile gid="0"/>
   <tile gid="0"/>
   <tile gid="0"/>
   <tile gid="0"/>
   <tile gid="0"/>
   <tile gid="0"/>
   <tile gid="0"/>
   <tile gid="0"/>
   <tile gid="0"/>
   <tile gid="0"/>
   <tile gid="0"/>
   <tile gid="0"/>
   <tile gid="0"/>
   <tile gid="0"/>
   <tile gid="0"/>
   <tile gid="0"/>
   <tile gid="0"/>
   <tile gid="0"/>
   <tile gid="0"/>
   <tile gid="0"/>
   <tile gid="0"/>
   <tile gid="0"/>
   <tile gid="0"/>
   <tile gid="0"/>
   <tile gid="0"/>
   <tile gid="0"/>
   <tile gid="0"/>
   <tile gid="0"/>
   <tile gid="0"/>
   <tile gid="0"/>
   <tile gid="0"/>
   <tile gid="0"/>
   <tile gid="0"/>
   <tile gid="0"/>
   <tile gid="0"/>
   <tile gid="0"/>
   <tile gid="0"/>
   <tile gid="0"/>
   <tile gid="0"/>
   <tile gid="0"/>
   <tile gid="0"/>
   <tile gid="0"/>
   <tile gid="0"/>
   <tile gid="0"/>
   <tile gid="0"/>
   <tile gid="0"/>
   <tile gid="0"/>
   <tile gid="0"/>
   <tile gid="0"/>
   <tile gid="0"/>
   <tile gid="0"/>
   <tile gid="0"/>
   <tile gid="0"/>
   <tile gid="0"/>
   <tile gid="0"/>
   <tile gid="0"/>
   <tile gid="0"/>
   <tile gid="0"/>
   <tile gid="0"/>
   <tile gid="0"/>
   <tile gid="0"/>
   <tile gid="0"/>
   <tile gid="0"/>
   <tile gid="0"/>
   <tile gid="0"/>
   <tile gid="0"/>
   <tile gid="0"/>
   <tile gid="0"/>
   <tile gid="0"/>
   <tile gid="0"/>
   <tile gid="0"/>
   <tile gid="0"/>
   <tile gid="0"/>
   <tile gid="0"/>
   <tile gid="0"/>
   <tile gid="0"/>
   <tile gid="0"/>
   <tile gid="0"/>
   <tile gid="0"/>
   <tile gid="0"/>
   <tile gid="0"/>
   <tile gid="0"/>
   <tile gid="0"/>
   <tile gid="0"/>
   <tile gid="0"/>
   <tile gid="0"/>
   <tile gid="0"/>
   <tile gid="0"/>
   <tile gid="0"/>
   <tile gid="0"/>
   <tile gid="9"/>
   <tile gid="0"/>
   <tile gid="0"/>
   <tile gid="0"/>
   <tile gid="10"/>
   <tile gid="0"/>
   <tile gid="0"/>
   <tile gid="0"/>
   <tile gid="0"/>
   <tile gid="0"/>
   <tile gid="0"/>
   <tile gid="0"/>
   <tile gid="0"/>
   <tile gid="0"/>
   <tile gid="0"/>
   <tile gid="0"/>
   <tile gid="0"/>
   <tile gid="0"/>
   <tile gid="0"/>
   <tile gid="0"/>
   <tile gid="0"/>
   <tile gid="0"/>
   <tile gid="8"/>
   <tile gid="0"/>
   <tile gid="0"/>
   <tile gid="0"/>
   <tile gid="0"/>
   <tile gid="0"/>
   <tile gid="0"/>
   <tile gid="0"/>
   <tile gid="0"/>
   <tile gid="0"/>
   <tile gid="0"/>
   <tile gid="0"/>
   <tile gid="0"/>
   <tile gid="0"/>
   <tile gid="0"/>
   <tile gid="0"/>
   <tile gid="0"/>
   <tile gid="0"/>
   <tile gid="0"/>
   <tile gid="9"/>
   <tile gid="0"/>
   <tile gid="0"/>
   <tile gid="0"/>
   <tile gid="0"/>
   <tile gid="9"/>
   <tile gid="0"/>
   <tile gid="0"/>
   <tile gid="0"/>
   <tile gid="10"/>
   <tile gid="0"/>
   <tile gid="0"/>
   <tile gid="0"/>
   <tile gid="0"/>
   <tile gid="0"/>
   <tile gid="0"/>
   <tile gid="0"/>
   <tile gid="0"/>
   <tile gid="0"/>
   <tile gid="0"/>
   <tile gid="0"/>
   <tile gid="0"/>
   <tile gid="0"/>
   <tile gid="0"/>
   <tile gid="0"/>
   <tile gid="8"/>
   <tile gid="0"/>
   <tile gid="0"/>
   <tile gid="0"/>
   <tile gid="10"/>
   <tile gid="0"/>
   <tile gid="0"/>
   <tile gid="0"/>
   <tile gid="0"/>
   <tile gid="0"/>
   <tile gid="0"/>
   <tile gid="0"/>
   <tile gid="0"/>
   <tile gid="0"/>
   <tile gid="0"/>
   <tile gid="8"/>
   <tile gid="0"/>
   <tile gid="0"/>
   <tile gid="0"/>
   <tile gid="0"/>
   <tile gid="0"/>
   <tile gid="0"/>
   <tile gid="0"/>
   <tile gid="0"/>
   <tile gid="10"/>
   <tile gid="0"/>
   <tile gid="0"/>
   <tile gid="0"/>
   <tile gid="0"/>
   <tile gid="0"/>
   <tile gid="0"/>
   <tile gid="0"/>
   <tile gid="0"/>
   <tile gid="0"/>
   <tile gid="9"/>
   <tile gid="0"/>
   <tile gid="0"/>
   <tile gid="0"/>
   <tile gid="0"/>
   <tile gid="0"/>
  </data>
 </layer>
</map>
